; generated by Slic3r 1.1.7 on 2015-05-29 at 11:56:15

; perimeters extrusion width = 0.40mm
; infill extrusion width = 0.67mm
; solid infill extrusion width = 0.67mm
; top infill extrusion width = 0.67mm

G21 ; set units to millimeters
M107
M92 E445; set custom extruder stepps
G0 Z1 ;Go to safe Z position
G28 ; home all axes
M301 P34.91 I1.90 D160.73; set custom PID parameters
G90 ; use absolute coordinates
G92 E0
M82 ; use absolute distances for extrusion
G1 F3000.000 E-1.00000
G92 E0
G1 Z0.350 F12000.000
G1 X70.122 Y109.514 F12000.000
G1 E1.00000 F3000.000
G1 X27.486 Y109.514 E2.39722 F2400.000
G1 X27.175 Y109.440 E2.40769
G1 X27.032 Y109.380 E2.41278
G1 X26.781 Y109.198 E2.42291
G1 X26.600 Y108.949 E2.43303
G1 X26.504 Y108.655 E2.44316
G1 X26.492 Y108.500 E2.44824
G1 X26.504 Y108.345 E2.45332
G1 X26.600 Y108.051 E2.46345
G1 X26.781 Y107.802 E2.47358
G1 X27.032 Y107.620 E2.48371
G1 X27.175 Y107.560 E2.48880
G1 X27.486 Y107.486 E2.49927
G1 X135.474 Y107.486 E6.03810 F2400.000
G1 X135.785 Y107.560 E6.04857
G1 X135.929 Y107.620 E6.05367
G1 X136.178 Y107.801 E6.06377
G1 X136.360 Y108.051 E6.07390
G1 X136.419 Y108.194 E6.07897
G1 X136.468 Y108.500 E6.08912
G1 X136.419 Y108.806 E6.09926
G1 X136.360 Y108.949 E6.10433
G1 X136.178 Y109.199 E6.11447
G1 X135.929 Y109.380 E6.12457
G1 X135.785 Y109.440 E6.12967
G1 X135.474 Y109.514 E6.14014
G1 X70.182 Y109.514 E8.27978
G1 X70.182 Y110.150 F12000.000
G1 X27.410 Y110.150 E9.68144 F1680.000
G1 X26.978 Y110.046 E9.69601
G1 X26.742 Y109.948 E9.70437
G1 X26.525 Y109.815 E9.71273
G1 X26.331 Y109.649 E9.72109
G1 X26.165 Y109.455 E9.72945
G1 X26.032 Y109.238 E9.73781
G1 X25.934 Y109.002 E9.74617
G1 X25.875 Y108.754 E9.75453
G1 X25.855 Y108.500 E9.76289
G1 X25.875 Y108.246 E9.77124
G1 X25.934 Y107.998 E9.77960
G1 X26.032 Y107.762 E9.78796
G1 X26.165 Y107.545 E9.79632
G1 X26.331 Y107.351 E9.80468
G1 X26.525 Y107.185 E9.81304
G1 X26.742 Y107.052 E9.82140
G1 X26.978 Y106.954 E9.82976
G1 X27.410 Y106.850 E9.84433
G1 X135.550 Y106.850 E13.38810
G1 X135.982 Y106.954 E13.40268
G1 X136.218 Y107.052 E13.41104 F1680.000
G1 X136.436 Y107.185 E13.41940
G1 X136.629 Y107.351 E13.42775
G1 X136.795 Y107.545 E13.43612
G1 X136.928 Y107.762 E13.44447
G1 X137.026 Y107.998 E13.45283
G1 X137.085 Y108.246 E13.46119
G1 X137.105 Y108.500 E13.46955
G1 X137.085 Y108.754 E13.47790
G1 X137.026 Y109.002 E13.48627
G1 X136.928 Y109.238 E13.49462
G1 X136.795 Y109.455 E13.50298
G1 X136.629 Y109.649 E13.51135
G1 X136.436 Y109.815 E13.51969
G1 X136.218 Y109.948 E13.52805
G1 X135.982 Y110.046 E13.53642
G1 X135.550 Y110.150 E13.55099
G1 X70.242 Y110.150 E15.69114
G1 X73.439 Y110.000 F9600.000 E14.74114
G1 F3000.000 E14.69114
G92 E0
G1 X136.154 Y107.142 F12000.000
G1 X135.741 Y108.032 F12000.000
G1 E1.00000 F3000.000
G1 X135.962 Y108.254 E1.01027 F3000.000
G1 X135.760 Y108.957 E1.03423
G1 X134.730 Y107.926 E1.08198
G1 X133.826 Y107.926 E1.11162
G1 X134.973 Y109.074 E1.16479
G1 X134.068 Y109.074 E1.19443
G1 X132.921 Y107.926 E1.24759
G1 X132.016 Y107.926 E1.27724
G1 X133.164 Y109.074 E1.33040
G1 X132.259 Y109.074 E1.36005
G1 X131.112 Y107.926 E1.41321
G1 X130.207 Y107.926 E1.44285
G1 X131.354 Y109.074 E1.49602
G1 X130.450 Y109.074 E1.52566
G1 X129.303 Y107.926 E1.57883
G1 X128.398 Y107.926 E1.60847
G1 X129.545 Y109.074 E1.66163
G1 X128.641 Y109.074 E1.69128
G1 X127.493 Y107.926 E1.74444
G1 X126.589 Y107.926 E1.77409
G1 X127.736 Y109.074 E1.82725
G1 X126.831 Y109.074 E1.85689
G1 X125.684 Y107.926 E1.91006
G1 X124.780 Y107.926 E1.93970
G1 X125.927 Y109.074 E1.99287
G1 X125.022 Y109.074 E2.02251
G1 X123.875 Y107.926 E2.07567
G1 X122.970 Y107.926 E2.10532
G1 X124.118 Y109.074 E2.15848
G1 X123.213 Y109.074 E2.18813
G1 X122.066 Y107.926 E2.24129
G1 X121.161 Y107.926 E2.27093
G1 X122.308 Y109.074 E2.32410
G1 X121.404 Y109.074 E2.35374
G1 X120.257 Y107.926 E2.40691
G1 X119.352 Y107.926 E2.43655
G1 X120.499 Y109.074 E2.48971
G1 X119.595 Y109.074 E2.51936
G1 X118.447 Y107.926 E2.57252
G1 X117.543 Y107.926 E2.60217
G1 X118.690 Y109.074 E2.65533
G1 X117.785 Y109.074 E2.68497
G1 X116.638 Y107.926 E2.73814
G1 X115.734 Y107.926 E2.76778
G1 X116.881 Y109.074 E2.82095
G1 X115.976 Y109.074 E2.85059
G1 X114.829 Y107.926 E2.90375
G1 X113.924 Y107.926 E2.93340
G1 X115.072 Y109.074 E2.98656
G1 X114.167 Y109.074 E3.01621
G1 X113.020 Y107.926 E3.06937
G1 X112.115 Y107.926 E3.09901
G1 X113.262 Y109.074 E3.15218
G1 X112.358 Y109.074 E3.18182
G1 X111.211 Y107.926 E3.23499
G1 X110.306 Y107.926 E3.26463
G1 X111.453 Y109.074 E3.31779
G1 X110.549 Y109.074 E3.34744
G1 X109.401 Y107.926 E3.40060
G1 X108.497 Y107.926 E3.43025
G1 X109.644 Y109.074 E3.48341
G1 X108.739 Y109.074 E3.51305
G1 X107.592 Y107.926 E3.56622
G1 X106.688 Y107.926 E3.59586
G1 X107.835 Y109.074 E3.64903
G1 X106.930 Y109.074 E3.67867
G1 X105.783 Y107.926 E3.73183
G1 X104.878 Y107.926 E3.76148
G1 X106.026 Y109.074 E3.81464
G1 X105.121 Y109.074 E3.84429
G1 X103.974 Y107.926 E3.89745
G1 X103.069 Y107.926 E3.92709
G1 X104.216 Y109.074 E3.98026
G1 X103.312 Y109.074 E4.00990
G1 X102.165 Y107.926 E4.06307
G1 X101.260 Y107.926 E4.09271
G1 X102.407 Y109.074 E4.14587
G1 X101.503 Y109.074 E4.17552
G1 X100.355 Y107.926 E4.22868
G1 X99.451 Y107.926 E4.25833
G1 X100.598 Y109.074 E4.31149
G1 X99.693 Y109.074 E4.34113
G1 X98.546 Y107.926 E4.39430
G1 X97.642 Y107.926 E4.42394
G1 X98.789 Y109.074 E4.47711
G1 X97.884 Y109.074 E4.50675
G1 X96.737 Y107.926 E4.55991
G1 X95.832 Y107.926 E4.58956
G1 X96.980 Y109.074 E4.64272
G1 X96.075 Y109.074 E4.67237
G1 X94.928 Y107.926 E4.72553
G1 X94.023 Y107.926 E4.75517
G1 X95.170 Y109.074 E4.80834
G1 X94.266 Y109.074 E4.83798
G1 X93.119 Y107.926 E4.89115
G1 X92.214 Y107.926 E4.92079
G1 X93.361 Y109.074 E4.97395
G1 X92.457 Y109.074 E5.00360
G1 X91.309 Y107.926 E5.05676
G1 X90.405 Y107.926 E5.08641
G1 X91.552 Y109.074 E5.13957
G1 X90.647 Y109.074 E5.16921
G1 X89.500 Y107.926 E5.22238
G1 X88.596 Y107.926 E5.25202
G1 X89.743 Y109.074 E5.30518
G1 X88.838 Y109.074 E5.33483
G1 X87.691 Y107.926 E5.38799
G1 X86.786 Y107.926 E5.41764
G1 X87.934 Y109.074 E5.47080
G1 X87.029 Y109.074 E5.50044
G1 X85.882 Y107.926 E5.55361
G1 X84.977 Y107.926 E5.58325
G1 X86.124 Y109.074 E5.63642
G1 X85.220 Y109.074 E5.66606
G1 X84.073 Y107.926 E5.71922
G1 X83.168 Y107.926 E5.74887
G1 X84.315 Y109.074 E5.80203
G1 X83.411 Y109.074 E5.83168
G1 X82.263 Y107.926 E5.88484
G1 X81.359 Y107.926 E5.91448
G1 X82.506 Y109.074 E5.96765
G1 X81.601 Y109.074 E5.99729
G1 X80.454 Y107.926 E6.05046
G1 X79.550 Y107.926 E6.08010
G1 X80.697 Y109.074 E6.13326
G1 X79.792 Y109.074 E6.16291
G1 X78.645 Y107.926 E6.21607
G1 X77.740 Y107.926 E6.24572
G1 X78.888 Y109.074 E6.29888
G1 X77.983 Y109.074 E6.32852
G1 X76.836 Y107.926 E6.38169
G1 X75.931 Y107.926 E6.41133
G1 X77.078 Y109.074 E6.46450
G1 X76.174 Y109.074 E6.49414
G1 X75.027 Y107.926 E6.54730
G1 X74.122 Y107.926 E6.57695
G1 X75.269 Y109.074 E6.63011
G1 X74.365 Y109.074 E6.65976
G1 X73.217 Y107.926 E6.71292
G1 X72.313 Y107.926 E6.74256
G1 X73.460 Y109.074 E6.79573
G1 X72.555 Y109.074 E6.82537
G1 X71.408 Y107.926 E6.87854
G1 X70.504 Y107.926 E6.90818
G1 X71.651 Y109.074 E6.96134
G1 X70.746 Y109.074 E6.99099
G1 X69.599 Y107.926 E7.04415
G1 X68.694 Y107.926 E7.07380
G1 X69.842 Y109.074 E7.12696
G1 X68.937 Y109.074 E7.15660
G1 X67.790 Y107.926 E7.20977
G1 X66.885 Y107.926 E7.23941
G1 X68.032 Y109.074 E7.29258
G1 X67.128 Y109.074 E7.32222
G1 X65.981 Y107.926 E7.37538
G1 X65.076 Y107.926 E7.40503
G1 X66.223 Y109.074 E7.45819
G1 X65.319 Y109.074 E7.48784
G1 X64.171 Y107.926 E7.54100
G1 X63.267 Y107.926 E7.57064
G1 X64.414 Y109.074 E7.62381
G1 X63.509 Y109.074 E7.65345
G1 X62.362 Y107.926 E7.70662
G1 X61.458 Y107.926 E7.73626
G1 X62.605 Y109.074 E7.78942
G1 X61.700 Y109.074 E7.81907
G1 X60.553 Y107.926 E7.87223
G1 X59.648 Y107.926 E7.90188
G1 X60.796 Y109.074 E7.95504
G1 X59.891 Y109.074 E7.98468
G1 X58.744 Y107.926 E8.03785
G1 X57.839 Y107.926 E8.06749
G1 X58.986 Y109.074 E8.12066
G1 X58.082 Y109.074 E8.15030
G1 X56.935 Y107.926 E8.20346
G1 X56.030 Y107.926 E8.23311
G1 X57.177 Y109.074 E8.28627
G1 X56.273 Y109.074 E8.31592
G1 X55.125 Y107.926 E8.36908
G1 X54.221 Y107.926 E8.39872
G1 X55.368 Y109.074 E8.45189
G1 X54.463 Y109.074 E8.48153
G1 X53.316 Y107.926 E8.53470
G1 X52.412 Y107.926 E8.56434
G1 X53.559 Y109.074 E8.61750
G1 X52.654 Y109.074 E8.64715
G1 X51.507 Y107.926 E8.70031
G1 X50.602 Y107.926 E8.72996
G1 X51.750 Y109.074 E8.78312
G1 X50.845 Y109.074 E8.81276
G1 X49.698 Y107.926 E8.86593
G1 X48.793 Y107.926 E8.89557
G1 X49.940 Y109.074 E8.94874
G1 X49.036 Y109.074 E8.97838
G1 X47.889 Y107.926 E9.03154
G1 X46.984 Y107.926 E9.06119
G1 X48.131 Y109.074 E9.11435
G1 X47.227 Y109.074 E9.14400
G1 X46.079 Y107.926 E9.19716
G1 X45.175 Y107.926 E9.22680
G1 X46.322 Y109.074 E9.27997
G1 X45.417 Y109.074 E9.30961
G1 X44.270 Y107.926 E9.36278
G1 X43.366 Y107.926 E9.39242
G1 X44.513 Y109.074 E9.44558
G1 X43.608 Y109.074 E9.47523
G1 X42.461 Y107.926 E9.52839
G1 X41.556 Y107.926 E9.55804
G1 X42.704 Y109.074 E9.61120
G1 X41.799 Y109.074 E9.64084
G1 X40.652 Y107.926 E9.69401
G1 X39.747 Y107.926 E9.72365
G1 X40.894 Y109.074 E9.77682
G1 X39.990 Y109.074 E9.80646
G1 X38.843 Y107.926 E9.85962
G1 X37.938 Y107.926 E9.88927
G1 X39.085 Y109.074 E9.94243
G1 X38.181 Y109.074 E9.97208
G1 X37.033 Y107.926 E10.02524
G1 X36.129 Y107.926 E10.05488
G1 X37.276 Y109.074 E10.10805
G1 X36.371 Y109.074 E10.13769
G1 X35.224 Y107.926 E10.19086
G1 X34.320 Y107.926 E10.22050
G1 X35.467 Y109.074 E10.27366
G1 X34.562 Y109.074 E10.30331
G1 X33.415 Y107.926 E10.35647
G1 X32.510 Y107.926 E10.38612
G1 X33.658 Y109.074 E10.43928
G1 X32.753 Y109.074 E10.46892
G1 X31.606 Y107.926 E10.52209
G1 X30.701 Y107.926 E10.55173
G1 X31.848 Y109.074 E10.60490
G1 X30.944 Y109.074 E10.63454
G1 X29.797 Y107.926 E10.68770
G1 X28.892 Y107.926 E10.71735
G1 X30.039 Y109.074 E10.77051
G1 X29.135 Y109.074 E10.80016
G1 X27.987 Y107.926 E10.85332
G1 X27.200 Y108.043 E10.87942
G1 X28.230 Y109.074 E10.92717
G1 X27.219 Y108.967 E10.96048
G1 X26.997 Y108.746 E10.97076
G1 X27.219 Y108.967 F9600.000 E10.87757
G1 X28.230 Y109.074 F9600.000 E10.57588
G1 X27.200 Y108.043 F9600.000 E10.14326
G1 X27.608 Y107.983 F9600.000 E10.02076
G1 F3000.000 E9.97076
G92 E0
G1 X119.745 Y98.354 F12000.000
G1 E1.00000 F3000.000
G1 X119.701 Y97.800 E1.01820 F2400.000
G1 X119.709 Y97.699 E1.02150
G1 X119.745 Y97.246 E1.03639
G1 X119.874 Y96.707 E1.05459
G1 X120.087 Y96.194 E1.07279
G1 X120.140 Y96.107 E1.07609
G1 X120.377 Y95.720 E1.09099
G1 X120.738 Y95.298 E1.10918
G1 X121.160 Y94.937 E1.12737
G1 X121.633 Y94.647 E1.14557
G1 X122.146 Y94.435 E1.16377
G1 X122.686 Y94.305 E1.18197
G1 X123.240 Y94.261 E1.20016
G1 X123.693 Y94.297 E1.21505
G1 X123.794 Y94.305 E1.21836 F2400.000
G1 X124.333 Y94.435 E1.23656
G1 X124.847 Y94.647 E1.25476
G1 X125.320 Y94.937 E1.27296
G1 X125.742 Y95.298 E1.29115
G1 X126.103 Y95.720 E1.30934
G1 X126.393 Y96.193 E1.32754
G1 X126.605 Y96.707 E1.34574
G1 X126.735 Y97.246 E1.36394
G1 X126.779 Y97.800 E1.38213
G1 X126.735 Y98.354 E1.40033
G1 X126.605 Y98.893 E1.41852
G1 X126.393 Y99.407 E1.43672
G1 X126.103 Y99.880 E1.45492
G1 X125.742 Y100.302 E1.47312
G1 X125.320 Y100.663 E1.49131
G1 X124.847 Y100.953 E1.50951
G1 X124.333 Y101.166 E1.52771
G1 X123.794 Y101.295 E1.54590
G1 X123.240 Y101.339 E1.56410
G1 X122.686 Y101.295 E1.58230
G1 X122.147 Y101.166 E1.60049
G1 X121.634 Y100.953 E1.61869
G1 X121.246 Y100.716 E1.63358
G1 X121.160 Y100.663 E1.63689
G1 X120.738 Y100.302 E1.65509
G1 X120.377 Y99.880 E1.67328
G1 X120.087 Y99.406 E1.69148
G1 X119.875 Y98.893 E1.70968
G1 X119.759 Y98.412 E1.72590
G1 X120.377 Y98.264 F12000.000
G1 X120.339 Y97.800 E1.74115 F1680.000
G1 X120.375 Y97.346 E1.75606
G1 X120.481 Y96.904 E1.77098
G1 X120.655 Y96.483 E1.78590
G1 X120.893 Y96.095 E1.80082
G1 X121.189 Y95.749 E1.81574
G1 X121.535 Y95.453 E1.83065
G1 X121.923 Y95.215 E1.84557
G1 X122.343 Y95.041 E1.86049
G1 X122.786 Y94.935 E1.87541
G1 X123.189 Y94.903 E1.88866
G1 X123.694 Y94.935 E1.90523 F1680.000
G1 X124.136 Y95.041 E1.92015
G1 X124.557 Y95.215 E1.93507
G1 X124.945 Y95.453 E1.94999
G1 X125.291 Y95.749 E1.96490
G1 X125.587 Y96.095 E1.97982
G1 X125.825 Y96.483 E1.99474
G1 X125.999 Y96.904 E2.00966
G1 X126.105 Y97.346 E2.02457
G1 X126.141 Y97.800 E2.03949
G1 X126.105 Y98.254 E2.05441
G1 X125.999 Y98.696 E2.06933
G1 X125.825 Y99.117 E2.08425
G1 X125.587 Y99.505 E2.09916
G1 X125.291 Y99.851 E2.11408
G1 X124.945 Y100.147 E2.12900
G1 X124.557 Y100.385 E2.14392
G1 X124.136 Y100.559 E2.15884
G1 X123.694 Y100.665 E2.17376
G1 X123.240 Y100.701 E2.18867
G1 X122.786 Y100.665 E2.20359
G1 X122.344 Y100.559 E2.21851
G1 X121.923 Y100.385 E2.23343
G1 X121.535 Y100.147 E2.24835
G1 X121.189 Y99.851 E2.26326
G1 X120.893 Y99.505 E2.27818
G1 X120.655 Y99.117 E2.29310
G1 X120.481 Y98.696 E2.30802
G1 X120.391 Y98.322 E2.32064
G1 X122.625 Y96.031 F9600.000 E1.37064
G1 F3000.000 E1.32064
G92 E0
G1 X123.288 Y94.515 F12000.000
G1 X122.994 Y96.503 F12000.000
G1 E1.00000 F3000.000
G1 X123.180 Y96.489 E1.00611 F2400.000
G1 X123.369 Y96.504 E1.01233
G1 X123.554 Y96.548 E1.01856
G1 X123.730 Y96.621 E1.02479
G1 X123.892 Y96.720 E1.03102
G1 X124.036 Y96.843 E1.03725
G1 X124.160 Y96.988 E1.04348
G1 X124.259 Y97.150 E1.04971
G1 X124.332 Y97.326 E1.05594
G1 X124.376 Y97.511 E1.06217
G1 X124.391 Y97.700 E1.06840
G1 X124.376 Y97.889 E1.07462
G1 X124.332 Y98.074 E1.08085
G1 X124.259 Y98.250 E1.08708
G1 X124.160 Y98.412 E1.09331
G1 X124.036 Y98.557 E1.09954
G1 X123.892 Y98.680 E1.10577
G1 X123.730 Y98.779 E1.11200
G1 X123.554 Y98.852 E1.11823
G1 X123.369 Y98.896 E1.12446
G1 X123.180 Y98.911 E1.13069
G1 X122.991 Y98.896 E1.13691
G1 X122.806 Y98.852 E1.14314
G1 X122.630 Y98.779 E1.14937
G1 X122.468 Y98.680 E1.15560
G1 X122.323 Y98.557 E1.16183
G1 X122.200 Y98.412 E1.16806
G1 X122.101 Y98.250 E1.17429
G1 X122.028 Y98.074 E1.18052
G1 X121.984 Y97.889 E1.18675
G1 X121.969 Y97.700 E1.19297
G1 X121.984 Y97.511 E1.19920
G1 X122.028 Y97.326 E1.20543
G1 X122.101 Y97.150 E1.21166
G1 X122.200 Y96.988 E1.21789
G1 X122.323 Y96.843 E1.22412
G1 X122.468 Y96.720 E1.23035
G1 X122.630 Y96.621 E1.23658
G1 X122.936 Y96.517 E1.24716
G1 X122.787 Y95.899 F12000.000
G1 X123.180 Y95.851 E1.26012 F2400.000
G1 X123.469 Y95.874 E1.26963
G1 X123.751 Y95.942 E1.27913 F2400.000
G1 X124.019 Y96.053 E1.28864
G1 X124.267 Y96.204 E1.29815
G1 X124.487 Y96.393 E1.30766
G1 X124.676 Y96.613 E1.31716
G1 X124.827 Y96.861 E1.32667
G1 X124.938 Y97.129 E1.33618
G1 X125.006 Y97.411 E1.34569
G1 X125.029 Y97.700 E1.35519
G1 X125.006 Y97.989 E1.36470
G1 X124.938 Y98.271 E1.37421
G1 X124.827 Y98.539 E1.38372
G1 X124.676 Y98.787 E1.39322
G1 X124.487 Y99.007 E1.40273
G1 X124.267 Y99.196 E1.41224
G1 X124.019 Y99.347 E1.42175
G1 X123.751 Y99.458 E1.43126
G1 X123.469 Y99.526 E1.44076
G1 X123.180 Y99.549 E1.45027
G1 X122.891 Y99.526 E1.45978
G1 X122.609 Y99.458 E1.46928
G1 X122.341 Y99.347 E1.47879
G1 X122.093 Y99.196 E1.48830
G1 X121.873 Y99.007 E1.49781
G1 X121.684 Y98.787 E1.50731
G1 X121.533 Y98.539 E1.51682
G1 X121.422 Y98.271 E1.52633
G1 X121.354 Y97.989 E1.53584
G1 X121.331 Y97.700 E1.54535
G1 X121.354 Y97.411 E1.55485
G1 X121.422 Y97.129 E1.56436
G1 X121.533 Y96.861 E1.57387
G1 X121.684 Y96.613 E1.58338
G1 X121.873 Y96.393 E1.59288
G1 X122.093 Y96.204 E1.60239
G1 X122.341 Y96.053 E1.61190
G1 X122.609 Y95.942 E1.62141
G1 X122.729 Y95.913 E1.62546
G1 X123.751 Y95.942 F9600.000 E1.32186
G1 X124.019 Y96.053 F9600.000 E1.23571
G1 X124.267 Y96.204 F9600.000 E1.14959
G1 X124.487 Y96.393 F9600.000 E1.06346
G1 X124.676 Y96.613 F9600.000 E0.97733
G1 X124.827 Y96.861 F9600.000 E0.89119
G1 X124.938 Y97.129 F9600.000 E0.80506
