; generated by Slic3r 1.1.7 on 2015-05-27 at 14:40:05

; perimeters extrusion width = 0.40mm
; infill extrusion width = 0.67mm
; solid infill extrusion width = 0.67mm
; top infill extrusion width = 0.67mm
; support material extrusion width = 0.40mm

G21 ; set units to millimeters
M107
M92 E445; set custom extruder stepps
G0 Z1 ;Go to safe Z position
G28 ; home all axes
M301 P34.91 I1.90 D160.73; set custom PID parameters
G90 ; use absolute coordinates
G92 E0
M82 ; use absolute distances for extrusion
G1 F1800.000 E-0.60000
G92 E0
G1 Z0.350 F12000.000
G1 X21.903 Y11.500 F12000.000
G1 E0.60000 F1800.000
G1 X23.123 Y9.556 E0.67522 F1800.000
G1 X24.932 Y8.143 E0.75044
G1 X28.050 Y7.364 E0.85576
G1 X136.950 Y7.364 E4.42445
G1 X139.211 Y7.761 E4.49967
G1 X141.201 Y8.905 E4.57489 F1800.000
G1 X142.683 Y10.658 E4.65010
G1 X143.581 Y13.743 E4.75539
G1 X145.106 Y53.189 E6.04901
G1 X145.106 Y187.095 E10.43717
G1 X144.402 Y190.069 E10.53730
G1 X144.189 Y190.493 E10.55287
G1 X142.821 Y192.336 E10.62809
G1 X140.907 Y193.603 E10.70330
G1 X138.257 Y194.156 E10.79202
G1 X134.584 Y194.155 E10.91240
G1 X31.006 Y192.688 E14.30702
G1 X29.621 Y192.522 E14.35273
G1 X28.987 Y192.377 E14.37405
G1 X26.871 Y191.486 E14.44927
G1 X25.186 Y189.928 E14.52449
G1 X24.437 Y188.681 E14.57215
G1 X22.022 Y183.430 E14.76157
G1 X21.428 Y181.081 E14.84097
G1 X19.894 Y156.908 E15.63471
G1 X19.899 Y53.098 E19.03661
G1 X21.419 Y13.744 E20.32721
G1 X21.891 Y11.559 E20.40046
G1 F1800.000 E19.80046
G92 E0
G1 X27.732 Y13.868 F12000.000
G1 E0.60000 F1800.000
G1 X27.918 Y13.682 E0.60863 F1800.000
G1 X31.182 Y13.682 E0.71557
G1 X31.368 Y13.868 E0.72419
G1 X31.368 Y180.789 E6.19423
G1 X31.182 Y180.975 E6.20286
G1 X27.918 Y180.975 E6.30980
G1 X27.732 Y180.789 E6.31842
G1 X27.732 Y158.191 E7.05895
G1 X27.469 Y157.849 E7.07311
G1 X26.128 Y157.492 E7.11856
G1 X26.019 Y157.400 E7.12326
G1 X25.823 Y156.965 E7.13887
G1 X25.826 Y156.822 E7.14357
G1 X26.196 Y156.083 E7.17065
G1 X26.147 Y155.698 E7.18337
G1 X25.927 Y155.448 E7.19430
G1 X25.887 Y155.361 E7.19741
G1 X25.848 Y155.055 E7.20753
G1 X25.864 Y154.962 E7.21064
G1 X26.873 Y152.947 E7.28447
G1 X27.492 Y152.742 E7.30583
G1 X27.732 Y152.409 E7.31929
G1 X27.732 Y56.571 E10.45992
G1 X27.391 Y56.205 E10.47633
G1 X27.134 Y56.187 E10.48477
G1 X26.045 Y55.644 E10.52463
G1 X25.962 Y55.548 E10.52878
G1 X25.831 Y55.153 E10.54244
G1 X25.840 Y55.026 E10.54659
G1 X26.196 Y54.314 E10.57269
G1 X26.147 Y53.929 E10.58542
G1 X25.927 Y53.679 E10.59634
G1 X25.887 Y53.592 E10.59945
G1 X25.848 Y53.286 E10.60957
G1 X25.864 Y53.193 E10.61268
G1 X26.886 Y51.154 E10.68742
G1 X27.492 Y50.952 E10.70835
G1 X27.732 Y50.619 E10.72181
G1 X27.732 Y13.928 E11.92418
G1 F1800.000 E11.32418
G92 E0
G1 X137.268 Y50.785 F12000.000
G1 E0.60000 F1800.000
G1 X137.795 Y51.165 E0.62131 F1800.000
G1 X138.101 Y51.064 E0.63189
G1 X138.963 Y51.495 E0.66345
G1 X139.046 Y51.745 E0.67208
G1 X138.816 Y52.204 E0.68890
G1 X138.889 Y52.618 E0.70268
G1 X139.002 Y52.726 E0.70780
G1 X139.174 Y53.147 E0.72272
G1 X139.169 Y53.284 E0.72723
G1 X138.661 Y54.298 E0.76438
G1 X138.827 Y54.798 E0.78163
G1 X139.043 Y54.906 E0.78955
G1 X139.126 Y55.156 E0.79817
G1 X138.705 Y55.995 E0.82894
G1 X138.601 Y56.081 E0.83336
G1 X138.171 Y56.199 E0.84798
G1 X137.710 Y56.130 E0.86327
G1 X137.268 Y56.511 E0.88238
G1 X137.268 Y152.394 E4.02451
G1 X137.864 Y152.768 E4.04758
G1 X138.140 Y152.634 E4.05760
G1 X138.877 Y152.785 E4.08226
G1 X139.018 Y152.948 E4.08933
G1 X139.141 Y154.984 E4.15618
G1 X139.097 Y155.197 E4.16329
G1 X138.661 Y156.067 E4.19518
G1 X138.827 Y156.567 E4.21243
G1 X139.043 Y156.675 E4.22035
G1 X139.126 Y156.925 E4.22897
G1 X138.687 Y157.800 E4.26108
G1 X138.579 Y157.887 E4.26561
G1 X138.135 Y158.000 E4.28064
G1 X137.725 Y157.925 E4.29429
G1 X137.268 Y158.306 E4.31379
G1 X137.268 Y174.832 E4.85536
G1 X137.745 Y175.214 E4.87538
G1 X137.912 Y175.176 E4.88100
G1 X138.052 Y175.208 E4.88568
G1 X139.023 Y175.968 E4.92610
G1 X139.082 Y176.061 E4.92971
G1 X139.161 Y176.412 E4.94151
G1 X139.148 Y176.521 E4.94511
G1 X138.817 Y177.181 E4.96931
G1 X138.840 Y177.527 E4.98068
G1 X139.187 Y178.032 E5.00075
G1 X139.198 Y178.205 E5.00643
G1 X138.817 Y178.967 E5.03433
G1 X138.840 Y179.313 E5.04570
G1 X139.187 Y179.818 E5.06577
G1 X139.198 Y179.991 E5.07145
G1 X138.817 Y180.752 E5.09936
G1 X138.840 Y181.098 E5.11072
G1 X139.187 Y181.603 E5.13079
G1 X139.198 Y181.776 E5.13647
G1 X138.817 Y182.538 E5.16438
G1 X138.840 Y182.884 E5.17574
G1 X139.187 Y183.389 E5.19581
G1 X139.198 Y183.562 E5.20149
G1 X138.817 Y184.323 E5.22940
G1 X138.840 Y184.669 E5.24076
G1 X139.187 Y185.174 E5.26083
G1 X139.198 Y185.347 E5.26651
G1 X138.661 Y186.419 E5.30581
G1 X138.827 Y186.919 E5.32306
G1 X139.043 Y187.027 E5.33098
G1 X139.126 Y187.277 E5.33960
G1 X138.790 Y187.948 E5.36419
G1 X138.730 Y188.013 E5.36709
G1 X138.486 Y188.164 E5.37650
G1 X138.401 Y188.188 E5.37940
G1 X137.084 Y188.188 E5.42253
G1 X137.044 Y188.165 E5.42404
G1 X136.793 Y188.136 E5.43233
G1 X136.611 Y188.188 E5.43853
G1 X135.295 Y188.188 E5.48167
G1 X135.247 Y188.161 E5.48346
G1 X135.012 Y188.128 E5.49122
G1 X134.599 Y188.224 E5.50512
G1 X134.460 Y188.194 E5.50977
G1 X133.481 Y187.448 E5.55012
G1 X133.420 Y187.355 E5.55376
G1 X133.338 Y186.997 E5.56578
G1 X132.990 Y186.721 E5.58032
G1 X132.532 Y186.721 E5.59535
G1 X132.392 Y186.705 E5.59997
G1 X132.334 Y186.721 E5.60193
G1 X131.118 Y186.721 E5.64179
G1 X130.978 Y186.705 E5.64641
G1 X130.920 Y186.721 E5.64837
G1 X129.704 Y186.721 E5.68823
G1 X129.564 Y186.705 E5.69284
G1 X129.506 Y186.721 E5.69481
G1 X128.290 Y186.721 E5.73466
G1 X128.150 Y186.705 E5.73928
G1 X128.093 Y186.721 E5.74124
G1 X126.876 Y186.721 E5.78110
G1 X126.736 Y186.705 E5.78572
G1 X126.679 Y186.721 E5.78768
G1 X125.462 Y186.721 E5.82754
G1 X125.322 Y186.705 E5.83216
G1 X125.265 Y186.721 E5.83412
G1 X124.049 Y186.721 E5.87398
G1 X123.909 Y186.705 E5.87860
G1 X123.851 Y186.721 E5.88056
G1 X122.635 Y186.721 E5.92042
G1 X122.495 Y186.705 E5.92504
G1 X122.437 Y186.721 E5.92700
G1 X121.221 Y186.721 E5.96685
G1 X121.081 Y186.705 E5.97147
G1 X121.023 Y186.721 E5.97343
G1 X119.807 Y186.721 E6.01329
G1 X119.667 Y186.705 E6.01791
G1 X119.609 Y186.721 E6.01987
G1 X118.393 Y186.721 E6.05973
G1 X118.253 Y186.705 E6.06435
G1 X118.196 Y186.721 E6.06631
G1 X116.979 Y186.721 E6.10617
G1 X116.839 Y186.705 E6.11079
G1 X116.782 Y186.721 E6.11275
G1 X115.565 Y186.721 E6.15261
G1 X115.425 Y186.705 E6.15723
G1 X115.368 Y186.721 E6.15919
G1 X114.152 Y186.721 E6.19905
G1 X114.012 Y186.705 E6.20366
G1 X113.954 Y186.721 E6.20563
G1 X112.738 Y186.721 E6.24548
G1 X112.598 Y186.705 E6.25010
G1 X112.540 Y186.721 E6.25206
G1 X111.324 Y186.721 E6.29192
G1 X111.184 Y186.705 E6.29654
G1 X111.126 Y186.721 E6.29850
G1 X109.910 Y186.721 E6.33836
G1 X109.770 Y186.705 E6.34298
G1 X109.712 Y186.721 E6.34494
G1 X108.496 Y186.721 E6.38480
G1 X108.356 Y186.705 E6.38942
G1 X108.299 Y186.721 E6.39138
G1 X107.082 Y186.721 E6.43124
G1 X106.942 Y186.705 E6.43586
G1 X106.885 Y186.721 E6.43782
G1 X105.668 Y186.721 E6.47767
G1 X105.528 Y186.705 E6.48229
G1 X105.471 Y186.721 E6.48425
G1 X104.255 Y186.721 E6.52411
G1 X104.115 Y186.705 E6.52873
G1 X104.057 Y186.721 E6.53069
G1 X102.841 Y186.721 E6.57055
G1 X102.701 Y186.705 E6.57517
G1 X102.643 Y186.721 E6.57713
G1 X101.427 Y186.721 E6.61699
G1 X101.287 Y186.705 E6.62161
G1 X101.229 Y186.721 E6.62357
G1 X100.013 Y186.721 E6.66343
G1 X99.873 Y186.705 E6.66805
G1 X99.815 Y186.721 E6.67001
G1 X98.599 Y186.721 E6.70987
G1 X98.459 Y186.705 E6.71448
G1 X98.402 Y186.721 E6.71645
G1 X97.185 Y186.721 E6.75630
G1 X97.045 Y186.705 E6.76092
G1 X96.988 Y186.721 E6.76288
G1 X95.771 Y186.721 E6.80274
G1 X95.631 Y186.705 E6.80736
G1 X95.574 Y186.721 E6.80932
G1 X94.358 Y186.721 E6.84918
G1 X94.218 Y186.705 E6.85380
G1 X94.160 Y186.721 E6.85576
G1 X92.944 Y186.721 E6.89562
G1 X92.804 Y186.705 E6.90024
G1 X92.746 Y186.721 E6.90220
G1 X91.530 Y186.721 E6.94206
G1 X91.390 Y186.705 E6.94668
G1 X91.332 Y186.721 E6.94864
G1 X90.116 Y186.721 E6.98849
G1 X89.976 Y186.705 E6.99311
G1 X89.918 Y186.721 E6.99507
G1 X88.702 Y186.721 E7.03493
G1 X88.562 Y186.705 E7.03955
G1 X88.505 Y186.721 E7.04151
G1 X87.288 Y186.721 E7.08137
G1 X87.148 Y186.705 E7.08599
G1 X87.091 Y186.721 E7.08795
G1 X85.874 Y186.721 E7.12781
G1 X85.734 Y186.705 E7.13243
G1 X85.677 Y186.721 E7.13439
G1 X84.461 Y186.721 E7.17425
G1 X84.321 Y186.705 E7.17887
G1 X84.263 Y186.721 E7.18083
G1 X83.047 Y186.721 E7.22069
G1 X82.907 Y186.705 E7.22530
G1 X82.849 Y186.721 E7.22727
G1 X81.633 Y186.721 E7.26712
G1 X81.493 Y186.705 E7.27174
G1 X81.435 Y186.721 E7.27370
G1 X80.219 Y186.721 E7.31356
G1 X80.079 Y186.705 E7.31818
G1 X80.021 Y186.721 E7.32014
G1 X78.805 Y186.721 E7.36000
G1 X78.665 Y186.705 E7.36462
G1 X78.608 Y186.721 E7.36658
G1 X77.391 Y186.721 E7.40644
G1 X77.251 Y186.705 E7.41106
G1 X77.194 Y186.721 E7.41302
G1 X75.977 Y186.721 E7.45288
G1 X75.837 Y186.705 E7.45750
G1 X75.780 Y186.721 E7.45946
G1 X74.564 Y186.721 E7.49931
G1 X74.424 Y186.705 E7.50393
G1 X74.366 Y186.721 E7.50589
G1 X73.150 Y186.721 E7.54575
G1 X73.010 Y186.705 E7.55037
G1 X72.952 Y186.721 E7.55233
G1 X71.736 Y186.721 E7.59219
G1 X71.596 Y186.705 E7.59681
G1 X71.538 Y186.721 E7.59877
G1 X70.322 Y186.721 E7.63863
G1 X70.182 Y186.705 E7.64325
G1 X70.124 Y186.721 E7.64521
G1 X68.908 Y186.721 E7.68507
G1 X68.768 Y186.705 E7.68969
G1 X68.711 Y186.721 E7.69165
G1 X67.494 Y186.721 E7.73151
G1 X67.354 Y186.705 E7.73612
G1 X67.297 Y186.721 E7.73809
G1 X66.080 Y186.721 E7.77794
G1 X65.940 Y186.705 E7.78256
G1 X65.883 Y186.721 E7.78452
G1 X64.667 Y186.721 E7.82438
G1 X64.527 Y186.705 E7.82900
G1 X64.469 Y186.721 E7.83096
G1 X63.253 Y186.721 E7.87082
G1 X63.113 Y186.705 E7.87544
G1 X63.055 Y186.721 E7.87740
G1 X61.839 Y186.721 E7.91726
G1 X61.699 Y186.705 E7.92188
G1 X61.641 Y186.721 E7.92384
G1 X60.425 Y186.721 E7.96370
G1 X60.285 Y186.705 E7.96832
G1 X60.227 Y186.721 E7.97028
G1 X59.011 Y186.721 E8.01013
G1 X58.871 Y186.705 E8.01475
G1 X58.814 Y186.721 E8.01671
G1 X57.597 Y186.721 E8.05657
G1 X57.457 Y186.705 E8.06119
G1 X57.400 Y186.721 E8.06315
G1 X56.183 Y186.721 E8.10301
G1 X56.043 Y186.705 E8.10763
G1 X55.986 Y186.721 E8.10959
G1 X54.770 Y186.721 E8.14945
G1 X54.630 Y186.705 E8.15407
G1 X54.572 Y186.721 E8.15603
G1 X53.356 Y186.721 E8.19589
G1 X53.216 Y186.705 E8.20051
G1 X53.158 Y186.721 E8.20247
G1 X51.942 Y186.721 E8.24233
G1 X51.802 Y186.705 E8.24694
G1 X51.744 Y186.721 E8.24891
G1 X50.528 Y186.721 E8.28876
G1 X50.388 Y186.705 E8.29338
G1 X50.330 Y186.721 E8.29534
G1 X49.114 Y186.721 E8.33520
G1 X48.974 Y186.705 E8.33982
G1 X48.917 Y186.721 E8.34178
G1 X47.700 Y186.721 E8.38164
G1 X47.560 Y186.705 E8.38626
G1 X47.503 Y186.721 E8.38822
G1 X46.286 Y186.721 E8.42808
G1 X46.146 Y186.705 E8.43270
G1 X46.089 Y186.721 E8.43466
G1 X44.873 Y186.721 E8.47452
G1 X44.733 Y186.705 E8.47914
G1 X44.675 Y186.721 E8.48110
G1 X43.459 Y186.721 E8.52095
G1 X43.319 Y186.705 E8.52557
G1 X43.261 Y186.721 E8.52753
G1 X42.045 Y186.721 E8.56739
G1 X41.905 Y186.705 E8.57201
G1 X41.847 Y186.721 E8.57397
G1 X40.631 Y186.721 E8.61383
G1 X40.491 Y186.705 E8.61845
G1 X40.433 Y186.721 E8.62041
G1 X39.217 Y186.721 E8.66027
G1 X39.077 Y186.705 E8.66489
G1 X39.020 Y186.721 E8.66685
G1 X37.803 Y186.721 E8.70671
G1 X37.663 Y186.705 E8.71133
G1 X37.606 Y186.721 E8.71329
G1 X36.389 Y186.721 E8.75315
G1 X36.249 Y186.705 E8.75776
G1 X36.192 Y186.721 E8.75973
G1 X34.976 Y186.721 E8.79958
G1 X34.836 Y186.705 E8.80420
G1 X34.778 Y186.721 E8.80616
G1 X33.562 Y186.721 E8.84602
G1 X33.422 Y186.705 E8.85064
G1 X33.364 Y186.721 E8.85260
G1 X32.148 Y186.721 E8.89246
G1 X32.008 Y186.705 E8.89708
G1 X31.950 Y186.721 E8.89904
G1 X30.822 Y186.721 E8.93602
G1 X30.647 Y186.638 E8.94237
G1 X29.935 Y186.469 E8.96635
G1 X29.798 Y186.296 E8.97360
G1 X29.798 Y184.439 E9.03445
G1 X29.842 Y184.252 E9.04075
G1 X29.958 Y184.021 E9.04920
G1 X30.207 Y183.938 E9.05783
G1 X30.273 Y183.971 E9.06024
G1 X30.773 Y183.805 E9.07749
G1 X31.583 Y182.188 E9.13677
G1 X31.643 Y182.123 E9.13967
G1 X31.887 Y181.972 E9.14908
G1 X31.972 Y181.948 E9.15198
G1 X33.189 Y181.948 E9.19184
G1 X33.329 Y181.964 E9.19646
G1 X33.386 Y181.948 E9.19842
G1 X34.603 Y181.948 E9.23827
G1 X34.743 Y181.964 E9.24289
G1 X34.800 Y181.948 E9.24485
G1 X36.016 Y181.948 E9.28471
G1 X36.156 Y181.964 E9.28933
G1 X36.214 Y181.948 E9.29129
G1 X37.430 Y181.948 E9.33115
G1 X37.570 Y181.964 E9.33577
G1 X37.628 Y181.948 E9.33773
G1 X38.844 Y181.948 E9.37759
G1 X38.984 Y181.964 E9.38221
G1 X39.042 Y181.948 E9.38417
G1 X40.258 Y181.948 E9.42403
G1 X40.398 Y181.964 E9.42865
G1 X40.456 Y181.948 E9.43061
G1 X41.672 Y181.948 E9.47047
G1 X41.812 Y181.964 E9.47508
G1 X41.869 Y181.948 E9.47705
G1 X43.086 Y181.948 E9.51690
G1 X43.226 Y181.964 E9.52152
G1 X43.283 Y181.948 E9.52348
G1 X44.500 Y181.948 E9.56334
G1 X44.640 Y181.964 E9.56796
G1 X44.697 Y181.948 E9.56992
G1 X45.913 Y181.948 E9.60978
G1 X46.053 Y181.964 E9.61440
G1 X46.111 Y181.948 E9.61636
G1 X47.327 Y181.948 E9.65622
G1 X47.467 Y181.964 E9.66084
G1 X47.525 Y181.948 E9.66280
G1 X48.741 Y181.948 E9.70266
G1 X48.881 Y181.964 E9.70728
G1 X48.939 Y181.948 E9.70924
G1 X50.155 Y181.948 E9.74909
G1 X50.295 Y181.964 E9.75371
G1 X50.353 Y181.948 E9.75567
G1 X51.569 Y181.948 E9.79553
G1 X51.709 Y181.964 E9.80015
G1 X51.766 Y181.948 E9.80211
G1 X52.983 Y181.948 E9.84197
G1 X53.123 Y181.964 E9.84659
G1 X53.180 Y181.948 E9.84855
G1 X54.397 Y181.948 E9.88841
G1 X54.537 Y181.964 E9.89303
G1 X54.594 Y181.948 E9.89499
G1 X55.810 Y181.948 E9.93485
G1 X55.950 Y181.964 E9.93947
G1 X56.008 Y181.948 E9.94143
G1 X57.224 Y181.948 E9.98129
G1 X57.364 Y181.964 E9.98590
G1 X57.422 Y181.948 E9.98787
G1 X58.638 Y181.948 E10.02772
G1 X58.778 Y181.964 E10.03234
G1 X58.836 Y181.948 E10.03430
G1 X60.052 Y181.948 E10.07416
G1 X60.192 Y181.964 E10.07878
G1 X60.250 Y181.948 E10.08074
G1 X61.466 Y181.948 E10.12060
G1 X61.606 Y181.964 E10.12522
G1 X61.663 Y181.948 E10.12718
G1 X62.880 Y181.948 E10.16704
G1 X63.020 Y181.964 E10.17166
G1 X63.077 Y181.948 E10.17362
G1 X64.294 Y181.948 E10.21348
G1 X64.434 Y181.964 E10.21810
G1 X64.491 Y181.948 E10.22006
G1 X65.707 Y181.948 E10.25992
G1 X65.847 Y181.964 E10.26453
G1 X65.905 Y181.948 E10.26649
G1 X67.121 Y181.948 E10.30635
G1 X67.261 Y181.964 E10.31097
G1 X67.319 Y181.948 E10.31293
G1 X68.535 Y181.948 E10.35279
G1 X68.675 Y181.964 E10.35741
G1 X68.733 Y181.948 E10.35937
G1 X69.949 Y181.948 E10.39923
G1 X70.089 Y181.964 E10.40385
G1 X70.147 Y181.948 E10.40581
G1 X71.363 Y181.948 E10.44567
G1 X71.503 Y181.964 E10.45029
G1 X71.560 Y181.948 E10.45225
G1 X72.777 Y181.948 E10.49211
G1 X72.917 Y181.964 E10.49673
G1 X72.974 Y181.948 E10.49869
G1 X74.191 Y181.948 E10.53854
G1 X74.331 Y181.964 E10.54316
G1 X74.388 Y181.948 E10.54512
G1 X75.604 Y181.948 E10.58498
G1 X75.744 Y181.964 E10.58960
G1 X75.802 Y181.948 E10.59156
G1 X77.018 Y181.948 E10.63142
G1 X77.158 Y181.964 E10.63604
G1 X77.216 Y181.948 E10.63800
G1 X78.432 Y181.948 E10.67786
G1 X78.572 Y181.964 E10.68248
G1 X78.630 Y181.948 E10.68444
G1 X79.846 Y181.948 E10.72430
G1 X79.986 Y181.964 E10.72892
G1 X80.044 Y181.948 E10.73088
G1 X81.260 Y181.948 E10.77074
G1 X81.400 Y181.964 E10.77535
G1 X81.457 Y181.948 E10.77731
G1 X82.674 Y181.948 E10.81717
G1 X82.814 Y181.964 E10.82179
G1 X82.871 Y181.948 E10.82375
G1 X84.088 Y181.948 E10.86361
G1 X84.228 Y181.964 E10.86823
G1 X84.285 Y181.948 E10.87019
G1 X85.501 Y181.948 E10.91005
G1 X85.641 Y181.964 E10.91467
G1 X85.699 Y181.948 E10.91663
G1 X86.915 Y181.948 E10.95649
G1 X87.055 Y181.964 E10.96111
G1 X87.113 Y181.948 E10.96307
G1 X88.329 Y181.948 E11.00293
