; generated by Slic3r 1.1.7 on 2015-05-28 at 11:50:54

; perimeters extrusion width = 0.40mm
; infill extrusion width = 0.67mm
; solid infill extrusion width = 0.67mm
; top infill extrusion width = 0.67mm

G21 ; set units to millimeters
M107
M92 E445; set custom extruder stepps
G0 Z1 ;Go to safe Z position
G28 ; home all axes
M301 P34.91 I1.90 D160.73; set custom PID parameters
G90 ; use absolute coordinates
G92 E0
M82 ; use absolute distances for extrusion
G1 F3000.000 E-1.00000
G92 E0
G1 Z0.350 F12000.000
G1 X59.153 Y186.014 F12000.000
G1 E1.00000 F3000.000
G1 X34.036 Y186.014 E1.82311 F2400.000
G1 X34.036 Y181.986 E1.95513
G1 X132.064 Y181.986 E5.16756 F2400.000
G1 X132.064 Y186.014 E5.29959
G1 X59.213 Y186.014 E7.68695
G1 X59.213 Y186.650 F12000.000
G1 X33.400 Y186.650 E8.53285 F1680.000
G1 X33.400 Y181.350 E8.70653
G1 X132.700 Y181.350 E11.96063
G1 X132.700 Y186.650 E12.13431
G1 X59.273 Y186.650 E14.54053 F1680.000
G1 X59.273 Y186.650 F9600.000
G1 F3000.000 E13.54053
G92 E0
G1 X132.700 Y186.250 F12000.000
G1 X131.584 Y182.426 F12000.000
G1 E1.00000 F3000.000
G1 X131.624 Y182.466 E1.00185 F3000.000
G1 X131.624 Y183.369 E1.03144
G1 X130.681 Y182.426 E1.07513
G1 X129.778 Y182.426 E1.10472
G1 X131.624 Y184.272 E1.19026
G1 X131.624 Y185.175 E1.21984
G1 X128.875 Y182.426 E1.34722
G1 X127.972 Y182.426 E1.37681
G1 X131.119 Y185.574 E1.52266
G1 X130.217 Y185.574 E1.55224
G1 X127.069 Y182.426 E1.69810
G1 X126.167 Y182.426 E1.72768
G1 X129.314 Y185.574 E1.87354
G1 X128.411 Y185.574 E1.90312
G1 X125.264 Y182.426 E2.04897
G1 X124.361 Y182.426 E2.07856
G1 X127.508 Y185.574 E2.22441
G1 X126.605 Y185.574 E2.25400
G1 X123.458 Y182.426 E2.39985
G1 X122.555 Y182.426 E2.42944
G1 X125.702 Y185.574 E2.57529
G1 X124.800 Y185.574 E2.60488
G1 X121.652 Y182.426 E2.75073
G1 X120.750 Y182.426 E2.78031
G1 X123.897 Y185.574 E2.92617
G1 X122.994 Y185.574 E2.95575
G1 X119.847 Y182.426 E3.10161
G1 X118.944 Y182.426 E3.13119
G1 X122.091 Y185.574 E3.27704
G1 X121.188 Y185.574 E3.30663
G1 X118.041 Y182.426 E3.45248
G1 X117.138 Y182.426 E3.48207
G1 X120.285 Y185.574 E3.62792
G1 X119.383 Y185.574 E3.65751
G1 X116.235 Y182.426 E3.80336
G1 X115.333 Y182.426 E3.83295
G1 X118.480 Y185.574 E3.97880
G1 X117.577 Y185.574 E4.00838
G1 X114.430 Y182.426 E4.15424
G1 X113.527 Y182.426 E4.18382
G1 X116.674 Y185.574 E4.32968
G1 X115.771 Y185.574 E4.35926
G1 X112.624 Y182.426 E4.50511
G1 X111.721 Y182.426 E4.53470
G1 X114.868 Y185.574 E4.68055
G1 X113.966 Y185.574 E4.71014
G1 X110.818 Y182.426 E4.85599
G1 X109.916 Y182.426 E4.88558
G1 X113.063 Y185.574 E5.03143
G1 X112.160 Y185.574 E5.06102
G1 X109.013 Y182.426 E5.20687
G1 X108.110 Y182.426 E5.23645
G1 X111.257 Y185.574 E5.38231
G1 X110.354 Y185.574 E5.41189
G1 X107.207 Y182.426 E5.55775
G1 X106.304 Y182.426 E5.58733
G1 X109.451 Y185.574 E5.73318
G1 X108.549 Y185.574 E5.76277
G1 X105.401 Y182.426 E5.90862
G1 X104.499 Y182.426 E5.93821
G1 X107.646 Y185.574 E6.08406
G1 X106.743 Y185.574 E6.11365
G1 X103.596 Y182.426 E6.25950
G1 X102.693 Y182.426 E6.28909
G1 X105.840 Y185.574 E6.43494
G1 X104.937 Y185.574 E6.46452
G1 X101.790 Y182.426 E6.61038
G1 X100.887 Y182.426 E6.63996
G1 X104.034 Y185.574 E6.78582
G1 X103.132 Y185.574 E6.81540
G1 X99.984 Y182.426 E6.96125
G1 X99.082 Y182.426 E6.99084
G1 X102.229 Y185.574 E7.13669
G1 X101.326 Y185.574 E7.16628
G1 X98.179 Y182.426 E7.31213
G1 X97.276 Y182.426 E7.34172
G1 X100.423 Y185.574 E7.48757
G1 X99.520 Y185.574 E7.51716
G1 X96.373 Y182.426 E7.66301
G1 X95.470 Y182.426 E7.69259
G1 X98.617 Y185.574 E7.83845
G1 X97.715 Y185.574 E7.86803
G1 X94.567 Y182.426 E8.01388
G1 X93.665 Y182.426 E8.04347
G1 X96.812 Y185.574 E8.18932
G1 X95.909 Y185.574 E8.21891
G1 X92.762 Y182.426 E8.36476
G1 X91.859 Y182.426 E8.39435
G1 X95.006 Y185.574 E8.54020
G1 X94.103 Y185.574 E8.56979
G1 X90.956 Y182.426 E8.71564
G1 X90.053 Y182.426 E8.74523
G1 X93.200 Y185.574 E8.89108
G1 X92.298 Y185.574 E8.92066
G1 X89.150 Y182.426 E9.06652
G1 X88.248 Y182.426 E9.09610
G1 X91.395 Y185.574 E9.24195
G1 X90.492 Y185.574 E9.27154
G1 X87.345 Y182.426 E9.41739
G1 X86.442 Y182.426 E9.44698
G1 X89.589 Y185.574 E9.59283
G1 X88.686 Y185.574 E9.62242
G1 X85.539 Y182.426 E9.76827
G1 X84.636 Y182.426 E9.79786
G1 X87.783 Y185.574 E9.94371
G1 X86.881 Y185.574 E9.97329
G1 X83.734 Y182.426 E10.11915
G1 X82.831 Y182.426 E10.14873
G1 X85.978 Y185.574 E10.29459
G1 X85.075 Y185.574 E10.32417
G1 X81.928 Y182.426 E10.47002
G1 X81.025 Y182.426 E10.49961
G1 X84.172 Y185.574 E10.64546
G1 X83.269 Y185.574 E10.67505
G1 X80.122 Y182.426 E10.82090
G1 X79.219 Y182.426 E10.85049
G1 X82.366 Y185.574 E10.99634
G1 X81.464 Y185.574 E11.02593
G1 X78.317 Y182.426 E11.17178
G1 X77.414 Y182.426 E11.20136
G1 X80.561 Y185.574 E11.34722
G1 X79.658 Y185.574 E11.37680
G1 X76.511 Y182.426 E11.52265
G1 X75.608 Y182.426 E11.55224
G1 X78.755 Y185.574 E11.69809
G1 X77.852 Y185.574 E11.72768
G1 X74.705 Y182.426 E11.87353
G1 X73.802 Y182.426 E11.90312
G1 X76.950 Y185.574 E12.04897
G1 X76.047 Y185.574 E12.07856
G1 X72.900 Y182.426 E12.22441
G1 X71.997 Y182.426 E12.25400
G1 X75.144 Y185.574 E12.39985
G1 X74.241 Y185.574 E12.42943
G1 X71.094 Y182.426 E12.57529
G1 X70.191 Y182.426 E12.60487
G1 X73.338 Y185.574 E12.75072
G1 X72.435 Y185.574 E12.78031
G1 X69.288 Y182.426 E12.92616
G1 X68.385 Y182.426 E12.95575
G1 X71.533 Y185.574 E13.10160
G1 X70.630 Y185.574 E13.13119
G1 X67.483 Y182.426 E13.27704
G1 X66.580 Y182.426 E13.30663
G1 X69.727 Y185.574 E13.45248
G1 X68.824 Y185.574 E13.48206
G1 X65.677 Y182.426 E13.62792
G1 X64.774 Y182.426 E13.65750
G1 X67.921 Y185.574 E13.80336
G1 X67.018 Y185.574 E13.83294
G1 X63.871 Y182.426 E13.97879
G1 X62.968 Y182.426 E14.00838
G1 X66.116 Y185.574 E14.15423
G1 X65.213 Y185.574 E14.18382
G1 X62.066 Y182.426 E14.32967
G1 X61.163 Y182.426 E14.35926
G1 X64.310 Y185.574 E14.50511
G1 X63.407 Y185.574 E14.53470
G1 X60.260 Y182.426 E14.68055
G1 X59.357 Y182.426 E14.71013
G1 X62.504 Y185.574 E14.85599
G1 X61.601 Y185.574 E14.88557
G1 X58.454 Y182.426 E15.03143
G1 X57.551 Y182.426 E15.06101
G1 X60.699 Y185.574 E15.20686
G1 X59.796 Y185.574 E15.23645
G1 X56.649 Y182.426 E15.38230
G1 X55.746 Y182.426 E15.41189
G1 X58.893 Y185.574 E15.55774
G1 X57.990 Y185.574 E15.58733
G1 X54.843 Y182.426 E15.73318
G1 X53.940 Y182.426 E15.76276
G1 X57.087 Y185.574 E15.90862
G1 X56.184 Y185.574 E15.93820
G1 X53.037 Y182.426 E16.08406
G1 X52.134 Y182.426 E16.11364
G1 X55.282 Y185.574 E16.25949
G1 X54.379 Y185.574 E16.28908
G1 X51.232 Y182.426 E16.43493
G1 X50.329 Y182.426 E16.46452
G1 X53.476 Y185.574 E16.61037
G1 X52.573 Y185.574 E16.63996
G1 X49.426 Y182.426 E16.78581
G1 X48.523 Y182.426 E16.81540
G1 X51.670 Y185.574 E16.96125
G1 X50.767 Y185.574 E16.99083
G1 X47.620 Y182.426 E17.13669
G1 X46.717 Y182.426 E17.16627
G1 X49.865 Y185.574 E17.31212
G1 X48.962 Y185.574 E17.34171
G1 X45.815 Y182.426 E17.48756
G1 X44.912 Y182.426 E17.51715
G1 X48.059 Y185.574 E17.66300
G1 X47.156 Y185.574 E17.69259
G1 X44.009 Y182.426 E17.83844
G1 X43.106 Y182.426 E17.86803
G1 X46.253 Y185.574 E18.01388
G1 X45.350 Y185.574 E18.04346
G1 X42.203 Y182.426 E18.18932
G1 X41.300 Y182.426 E18.21890
G1 X44.448 Y185.574 E18.36476
G1 X43.545 Y185.574 E18.39434
G1 X40.398 Y182.426 E18.54019
G1 X39.495 Y182.426 E18.56978
G1 X42.642 Y185.574 E18.71563
G1 X41.739 Y185.574 E18.74522
G1 X38.592 Y182.426 E18.89107
G1 X37.689 Y182.426 E18.92066
G1 X40.836 Y185.574 E19.06651
G1 X39.933 Y185.574 E19.09610
G1 X36.786 Y182.426 E19.24195
G1 X35.883 Y182.426 E19.27153
G1 X39.031 Y185.574 E19.41739
G1 X38.128 Y185.574 E19.44697
G1 X34.981 Y182.426 E19.59282
G1 X34.476 Y182.825 E19.61389
G1 X37.225 Y185.574 E19.74126
G1 X36.322 Y185.574 E19.77085
G1 X34.476 Y183.728 E19.85639
G1 X34.476 Y184.631 E19.88597
G1 X35.419 Y185.574 E19.92967
G1 X34.516 Y185.574 E19.95925
G1 X34.476 Y185.534 E19.96111
G1 X34.516 Y185.574 F9600.000 E19.94431
G1 X35.419 Y185.574 F9600.000 E19.67629
G1 X34.476 Y184.631 F9600.000 E19.28044
G1 X34.476 Y183.728 F9600.000 E19.01241
G1 X34.480 Y183.731 F9600.000 E19.01111
G1 F3000.000 E18.96111
G92 E0
G1 X30.064 Y165.755 F12000.000
G1 E1.00000 F3000.000
G1 X30.064 Y173.207 E1.24421 F2400.000
G1 X29.036 Y173.207 E1.27793
G1 X29.036 Y157.277 E1.79998
G1 X30.064 Y157.277 E1.83369 F2400.000
G1 X30.064 Y165.695 E2.10956
G1 X30.064 Y162.495 F9600.000 E1.15956
G1 F3000.000 E1.10956
G92 E0
G1 X30.064 Y103.167 F12000.000
G1 E1.00000 F3000.000
G1 X30.064 Y151.383 E2.58006 F2400.000
G1 X29.036 Y151.383 E2.61378
G1 X29.036 Y55.477 E5.75666
G1 X30.064 Y55.477 E5.79037 F2400.000
G1 X30.064 Y103.107 E7.35122
G1 X30.064 Y99.907 F9600.000 E6.40122
G1 F3000.000 E6.35122
G92 E0
G1 X29.036 Y31.305 F12000.000
G1 E1.00000 F3000.000
G1 X29.036 Y13.986 E1.56757 F2400.000
G1 X30.064 Y13.986 E1.60128 F2400.000
G1 X30.064 Y49.583 E2.76782
G1 X29.036 Y49.583 E2.80154
G1 X29.036 Y31.365 E3.39854
G1 X28.400 Y31.365 F12000.000
G1 X28.400 Y13.350 E3.98891 F1680.000
G1 X30.700 Y13.350 E4.06428
G1 X30.700 Y173.843 E9.32369
G1 X28.400 Y173.843 E9.39906 F1680.000
G1 X28.400 Y156.641 E9.96277
G1 X30.100 Y156.641 E10.01848
G1 X30.100 Y152.019 E10.16996
G1 X28.400 Y152.019 E10.22567
G1 X28.400 Y54.841 E13.41021
G1 X30.100 Y54.841 E13.46592
G1 X30.100 Y50.219 E13.61740
G1 X28.400 Y50.219 E13.67311
G1 X28.400 Y31.425 E14.28898
G1 X28.400 Y34.625 F9600.000 E13.33898
G1 F3000.000 E13.28898
G92 E0
G1 X30.352 Y173.645 F12000.000
G1 X29.550 Y49.265 F12000.000
G1 E1.00000 F3000.000
G1 X29.550 Y14.303 E1.65022 F600.000
G1 X29.550 Y17.503 F9600.000 E0.70022
G1 F3000.000 E0.65022
G92 E0
G1 X29.550 Y55.795 F12000.000
G1 E1.00000 F3000.000
G1 X29.550 Y151.065 E2.77184 F600.000
G1 X29.550 Y147.865 F9600.000 E1.82184
G1 F3000.000 E1.77184
G92 E0
G1 X29.550 Y157.595 F12000.000
G1 E1.00000 F3000.000
G1 X29.550 Y172.890 E1.28446 F600.000
G1 X29.550 Y169.690 F9600.000 E0.33446
G1 F3000.000 E0.28446
G92 E0
G1 X134.036 Y165.536 F12000.000
G1 E1.00000 F3000.000
G1 X134.036 Y157.277 E1.27066 F2400.000
G1 X135.964 Y157.277 E1.33386 F2400.000
G1 X135.964 Y173.207 E1.85592
G1 X134.036 Y173.207 E1.91912
G1 X134.036 Y165.596 E2.16855
G1 X134.758 Y162.479 F9600.000 E1.21855
G1 F3000.000 E1.16855
G92 E0
G1 X135.964 Y102.865 F12000.000
G1 E1.00000 F3000.000
G1 X135.964 Y151.383 E2.58995 F2400.000
G1 X134.036 Y151.383 E2.65315
G1 X134.036 Y55.477 E5.79603
G1 X135.964 Y55.477 E5.85924 F2400.000
G1 X135.964 Y102.805 E7.41021
G1 X135.964 Y99.605 F9600.000 E6.46021
G1 F3000.000 E6.41021
G92 E0
G1 X135.964 Y31.105 F12000.000
G1 E1.00000 F3000.000
G1 X135.964 Y49.583 E1.60554 F2400.000
G1 X134.036 Y49.583 E1.66874
G1 X134.036 Y13.986 E2.83528
G1 X135.964 Y13.986 E2.89849 F2400.000
G1 X135.964 Y31.045 E3.45753
G1 X136.600 Y31.045 F12000.000
G1 X136.600 Y50.219 E4.08586 F1680.000
G1 X134.100 Y50.219 E4.16779 F1680.000
G1 X134.100 Y54.301 E4.30155
G1 X134.100 Y54.841 E4.31927
G1 X136.600 Y54.841 E4.40119
G1 X136.600 Y152.019 E7.58573
G1 X134.100 Y152.019 E7.66766
G1 X134.100 Y156.641 E7.81914
G1 X136.600 Y156.641 E7.90106
G1 X136.600 Y173.843 E8.46477
G1 X133.400 Y173.843 E8.56964
G1 X133.400 Y13.350 E13.82905
G1 X136.600 Y13.350 E13.93391
G1 X136.600 Y30.985 E14.51182
G1 X136.188 Y34.158 F9600.000 E13.56182
G1 F3000.000 E13.51182
G92 E0
G1 X136.254 Y50.019 F12000.000
G1 X135.484 Y157.718 F12000.000
G1 E1.00000 F3000.000
G1 X135.524 Y157.758 E1.00185 F3000.000
G1 X135.524 Y158.700 E1.03273
G1 X134.541 Y157.718 E1.07824
G1 X134.476 Y158.595 E1.10707
G1 X135.524 Y159.642 E1.15560
G1 X135.524 Y160.584 E1.18647
G1 X134.476 Y159.537 E1.23500
G1 X134.476 Y160.479 E1.26587
G1 X135.524 Y161.526 E1.31440
G1 X135.524 Y162.468 E1.34528
G1 X134.476 Y161.421 E1.39381
G1 X134.476 Y162.363 E1.42468
G1 X135.524 Y163.410 E1.47321
G1 X135.524 Y164.353 E1.50408
G1 X134.476 Y163.305 E1.55261
G1 X134.476 Y164.248 E1.58349
G1 X135.524 Y165.295 E1.63202
G1 X135.524 Y166.237 E1.66289
G1 X134.476 Y165.190 E1.71142
G1 X134.476 Y166.132 E1.74229
G1 X135.524 Y167.179 E1.79082
G1 X135.524 Y168.121 E1.82170
G1 X134.476 Y167.074 E1.87023
G1 X134.476 Y168.016 E1.90110
G1 X135.524 Y169.063 E1.94963
G1 X135.524 Y170.005 E1.98050
G1 X134.476 Y168.958 E2.02903
G1 X134.476 Y169.900 E2.05991
G1 X135.524 Y170.947 E2.10844
G1 X135.524 Y171.890 E2.13931
G1 X134.476 Y170.842 E2.18784
G1 X134.476 Y171.785 E2.21871
G1 X135.459 Y172.767 E2.26423
G1 X134.516 Y172.767 E2.29510
G1 X134.476 Y172.727 E2.29696
G1 X134.516 Y172.767 F9600.000 E2.28016
G1 X135.459 Y172.767 F9600.000 E2.00047
G1 X134.476 Y171.785 F9600.000 E1.58813
G1 X134.476 Y170.972 F9600.000 E1.34696
G1 F3000.000 E1.29696
G92 E0
G1 X134.516 Y150.942 F12000.000
G1 E1.00000 F3000.000
G1 X134.476 Y150.902 E1.00185 F3000.000
G1 X134.476 Y149.997 E1.03153
G1 X135.422 Y150.942 E1.07535
G1 X135.524 Y150.138 E1.10191
G1 X134.476 Y149.091 E1.15044
G1 X134.476 Y148.186 E1.18012
G1 X135.524 Y149.233 E1.22864
G1 X135.524 Y148.327 E1.25832
G1 X134.476 Y147.280 E1.30685
G1 X134.476 Y146.374 E1.33653
G1 X135.524 Y147.422 E1.38506
G1 X135.524 Y146.516 E1.41473
G1 X134.476 Y145.469 E1.46326
G1 X134.476 Y144.563 E1.49294
G1 X135.524 Y145.610 E1.54147
G1 X135.524 Y144.705 E1.57114
G1 X134.476 Y143.658 E1.61967
G1 X134.476 Y142.752 E1.64935
G1 X135.524 Y143.799 E1.69788
G1 X135.524 Y142.894 E1.72756
G1 X134.476 Y141.847 E1.77609
G1 X134.476 Y140.941 E1.80576
G1 X135.524 Y141.988 E1.85429
G1 X135.524 Y141.083 E1.88397
G1 X134.476 Y140.035 E1.93250
G1 X134.476 Y139.130 E1.96217
G1 X135.524 Y140.177 E2.01070
G1 X135.524 Y139.271 E2.04038
G1 X134.476 Y138.224 E2.08891
G1 X134.476 Y137.319 E2.11859
G1 X135.524 Y138.366 E2.16712
G1 X135.524 Y137.460 E2.19679
G1 X134.476 Y136.413 E2.24532
G1 X134.476 Y135.507 E2.27500
G1 X135.524 Y136.555 E2.32353
G1 X135.524 Y135.649 E2.35320
G1 X134.476 Y134.602 E2.40173
G1 X134.476 Y133.696 E2.43141
G1 X135.524 Y134.743 E2.47994
G1 X135.524 Y133.838 E2.50962
G1 X134.476 Y132.791 E2.55815
G1 X134.476 Y131.885 E2.58782
G1 X135.524 Y132.932 E2.63635
G1 X135.524 Y132.027 E2.66603
G1 X134.476 Y130.980 E2.71456
G1 X134.476 Y130.074 E2.74423
G1 X135.524 Y131.121 E2.79276
G1 X135.524 Y130.216 E2.82244
G1 X134.476 Y129.168 E2.87097
G1 X134.476 Y128.263 E2.90065
G1 X135.524 Y129.310 E2.94918
G1 X135.524 Y128.404 E2.97885
G1 X134.476 Y127.357 E3.02738
G1 X134.476 Y126.452 E3.05706
G1 X135.524 Y127.499 E3.10559
G1 X135.524 Y126.593 E3.13526
G1 X134.476 Y125.546 E3.18379
G1 X134.476 Y124.640 E3.21347
G1 X135.524 Y125.688 E3.26200
G1 X135.524 Y124.782 E3.29168
G1 X134.476 Y123.735 E3.34021
G1 X134.476 Y122.829 E3.36988
G1 X135.524 Y123.876 E3.41841
G1 X135.524 Y122.971 E3.44809
G1 X134.476 Y121.924 E3.49662
G1 X134.476 Y121.018 E3.52629
G1 X135.524 Y122.065 E3.57482
G1 X135.524 Y121.160 E3.60450
G1 X134.476 Y120.113 E3.65303
G1 X134.476 Y119.207 E3.68270
G1 X135.524 Y120.254 E3.73123
G1 X135.524 Y119.349 E3.76091
G1 X134.476 Y118.301 E3.80944
G1 X134.476 Y117.396 E3.83912
G1 X135.524 Y118.443 E3.88765
G1 X135.524 Y117.537 E3.91732
G1 X134.476 Y116.490 E3.96585
G1 X134.476 Y115.585 E3.99553
G1 X135.524 Y116.632 E4.04406
G1 X135.524 Y115.726 E4.07373
G1 X134.476 Y114.679 E4.12226
G1 X134.476 Y113.773 E4.15194
G1 X135.524 Y114.821 E4.20047
G1 X135.524 Y113.915 E4.23015
G1 X134.476 Y112.868 E4.27868
G1 X134.476 Y111.962 E4.30835
G1 X135.524 Y113.009 E4.35688
G1 X135.524 Y112.104 E4.38656
G1 X134.476 Y111.057 E4.43509
G1 X134.476 Y110.151 E4.46476
G1 X135.524 Y111.198 E4.51329
G1 X135.524 Y110.293 E4.54297
G1 X134.476 Y109.246 E4.59150
G1 X134.476 Y108.340 E4.62118
G1 X135.524 Y109.387 E4.66971
G1 X135.524 Y108.482 E4.69938
G1 X134.476 Y107.434 E4.74791
G1 X134.476 Y106.529 E4.77759
G1 X135.524 Y107.576 E4.82612
