; generated by Slic3r 1.1.7 on 2015-05-28 at 13:47:24

; perimeters extrusion width = 0.40mm
; infill extrusion width = 0.67mm
; solid infill extrusion width = 0.67mm
; top infill extrusion width = 0.67mm

G21 ; set units to millimeters
M107
M92 E445; set custom extruder stepps
G0 Z1 ;Go to safe Z position
G28 ; home all axes
M301 P34.91 I1.90 D160.73; set custom PID parameters
G90 ; use absolute coordinates
G92 E0
M82 ; use absolute distances for extrusion
G1 F3000.000 E-1.00000
G92 E0
G1 Z0.350 F12000.000
G1 X48.077 Y184.964 F12000.000
G1 E1.00000 F3000.000
G1 X34.236 Y184.964 E1.45359 F2400.000
G1 X34.236 Y180.936 E1.58561
G1 X132.264 Y180.936 E4.79805 F2400.000
G1 X132.264 Y184.964 E4.93007
G1 X48.137 Y184.964 E7.68695
G1 X48.137 Y185.600 F12000.000
G1 X33.600 Y185.600 E8.16334 F1680.000
G1 X33.600 Y180.300 E8.33702
G1 X132.900 Y180.300 E11.59111
G1 X132.900 Y185.600 E11.76479
G1 X48.197 Y185.600 E14.54053 F1680.000
G1 X48.197 Y185.600 F9600.000
G1 F3000.000 E13.54053
G92 E0
G1 X132.900 Y185.200 F12000.000
G1 X131.784 Y181.376 F12000.000
G1 E1.00000 F3000.000
G1 X131.824 Y181.416 E1.00185 F3000.000
G1 X131.824 Y182.319 E1.03144
G1 X130.881 Y181.376 E1.07513
G1 X129.978 Y181.376 E1.10472
G1 X131.824 Y183.222 E1.19026
G1 X131.824 Y184.125 E1.21984
G1 X129.075 Y181.376 E1.34722
G1 X128.172 Y181.376 E1.37681
G1 X131.319 Y184.524 E1.52266
G1 X130.417 Y184.524 E1.55224
G1 X127.269 Y181.376 E1.69810
G1 X126.367 Y181.376 E1.72768
G1 X129.514 Y184.524 E1.87354
G1 X128.611 Y184.524 E1.90312
G1 X125.464 Y181.376 E2.04897
G1 X124.561 Y181.376 E2.07856
G1 X127.708 Y184.524 E2.22441
G1 X126.805 Y184.524 E2.25400
G1 X123.658 Y181.376 E2.39985
G1 X122.755 Y181.376 E2.42944
G1 X125.902 Y184.524 E2.57529
G1 X125.000 Y184.524 E2.60488
G1 X121.852 Y181.376 E2.75073
G1 X120.950 Y181.376 E2.78031
G1 X124.097 Y184.524 E2.92617
G1 X123.194 Y184.524 E2.95575
G1 X120.047 Y181.376 E3.10161
G1 X119.144 Y181.376 E3.13119
G1 X122.291 Y184.524 E3.27704
G1 X121.388 Y184.524 E3.30663
G1 X118.241 Y181.376 E3.45248
G1 X117.338 Y181.376 E3.48207
G1 X120.485 Y184.524 E3.62792
G1 X119.583 Y184.524 E3.65751
G1 X116.435 Y181.376 E3.80336
G1 X115.533 Y181.376 E3.83295
G1 X118.680 Y184.524 E3.97880
G1 X117.777 Y184.524 E4.00838
G1 X114.630 Y181.376 E4.15424
G1 X113.727 Y181.376 E4.18382
G1 X116.874 Y184.524 E4.32968
G1 X115.971 Y184.524 E4.35926
G1 X112.824 Y181.376 E4.50511
G1 X111.921 Y181.376 E4.53470
G1 X115.068 Y184.524 E4.68055
G1 X114.166 Y184.524 E4.71014
G1 X111.018 Y181.376 E4.85599
G1 X110.116 Y181.376 E4.88558
G1 X113.263 Y184.524 E5.03143
G1 X112.360 Y184.524 E5.06102
G1 X109.213 Y181.376 E5.20687
G1 X108.310 Y181.376 E5.23645
G1 X111.457 Y184.524 E5.38231
G1 X110.554 Y184.524 E5.41189
G1 X107.407 Y181.376 E5.55775
G1 X106.504 Y181.376 E5.58733
G1 X109.651 Y184.524 E5.73318
G1 X108.749 Y184.524 E5.76277
G1 X105.601 Y181.376 E5.90862
G1 X104.699 Y181.376 E5.93821
G1 X107.846 Y184.524 E6.08406
G1 X106.943 Y184.524 E6.11365
G1 X103.796 Y181.376 E6.25950
G1 X102.893 Y181.376 E6.28909
G1 X106.040 Y184.524 E6.43494
G1 X105.137 Y184.524 E6.46452
G1 X101.990 Y181.376 E6.61038
G1 X101.087 Y181.376 E6.63996
G1 X104.234 Y184.524 E6.78582
G1 X103.332 Y184.524 E6.81540
G1 X100.184 Y181.376 E6.96125
G1 X99.282 Y181.376 E6.99084
G1 X102.429 Y184.524 E7.13669
G1 X101.526 Y184.524 E7.16628
G1 X98.379 Y181.376 E7.31213
G1 X97.476 Y181.376 E7.34172
G1 X100.623 Y184.524 E7.48757
G1 X99.720 Y184.524 E7.51716
G1 X96.573 Y181.376 E7.66301
G1 X95.670 Y181.376 E7.69259
G1 X98.817 Y184.524 E7.83845
G1 X97.915 Y184.524 E7.86803
G1 X94.767 Y181.376 E8.01388
G1 X93.865 Y181.376 E8.04347
G1 X97.012 Y184.524 E8.18932
G1 X96.109 Y184.524 E8.21891
G1 X92.962 Y181.376 E8.36476
G1 X92.059 Y181.376 E8.39435
G1 X95.206 Y184.524 E8.54020
G1 X94.303 Y184.524 E8.56979
G1 X91.156 Y181.376 E8.71564
G1 X90.253 Y181.376 E8.74523
G1 X93.400 Y184.524 E8.89108
G1 X92.498 Y184.524 E8.92066
G1 X89.350 Y181.376 E9.06652
G1 X88.448 Y181.376 E9.09610
G1 X91.595 Y184.524 E9.24195
G1 X90.692 Y184.524 E9.27154
G1 X87.545 Y181.376 E9.41739
G1 X86.642 Y181.376 E9.44698
G1 X89.789 Y184.524 E9.59283
G1 X88.886 Y184.524 E9.62242
G1 X85.739 Y181.376 E9.76827
G1 X84.836 Y181.376 E9.79786
G1 X87.983 Y184.524 E9.94371
G1 X87.081 Y184.524 E9.97329
G1 X83.934 Y181.376 E10.11915
G1 X83.031 Y181.376 E10.14873
G1 X86.178 Y184.524 E10.29459
G1 X85.275 Y184.524 E10.32417
G1 X82.128 Y181.376 E10.47002
G1 X81.225 Y181.376 E10.49961
G1 X84.372 Y184.524 E10.64546
G1 X83.469 Y184.524 E10.67505
G1 X80.322 Y181.376 E10.82090
G1 X79.419 Y181.376 E10.85049
G1 X82.566 Y184.524 E10.99634
G1 X81.664 Y184.524 E11.02593
G1 X78.517 Y181.376 E11.17178
G1 X77.614 Y181.376 E11.20136
G1 X80.761 Y184.524 E11.34722
G1 X79.858 Y184.524 E11.37680
G1 X76.711 Y181.376 E11.52266
G1 X75.808 Y181.376 E11.55224
G1 X78.955 Y184.524 E11.69809
G1 X78.052 Y184.524 E11.72768
G1 X74.905 Y181.376 E11.87353
G1 X74.002 Y181.376 E11.90312
G1 X77.150 Y184.524 E12.04897
G1 X76.247 Y184.524 E12.07856
G1 X73.100 Y181.376 E12.22441
G1 X72.197 Y181.376 E12.25400
G1 X75.344 Y184.524 E12.39985
G1 X74.441 Y184.524 E12.42943
G1 X71.294 Y181.376 E12.57529
G1 X70.391 Y181.376 E12.60487
G1 X73.538 Y184.524 E12.75072
G1 X72.635 Y184.524 E12.78031
G1 X69.488 Y181.376 E12.92616
G1 X68.585 Y181.376 E12.95575
G1 X71.733 Y184.524 E13.10160
G1 X70.830 Y184.524 E13.13119
G1 X67.683 Y181.376 E13.27704
G1 X66.780 Y181.376 E13.30663
G1 X69.927 Y184.524 E13.45248
G1 X69.024 Y184.524 E13.48206
G1 X65.877 Y181.376 E13.62792
G1 X64.974 Y181.376 E13.65750
G1 X68.121 Y184.524 E13.80336
G1 X67.218 Y184.524 E13.83294
G1 X64.071 Y181.376 E13.97879
G1 X63.168 Y181.376 E14.00838
G1 X66.316 Y184.524 E14.15423
G1 X65.413 Y184.524 E14.18382
G1 X62.266 Y181.376 E14.32967
G1 X61.363 Y181.376 E14.35926
G1 X64.510 Y184.524 E14.50511
G1 X63.607 Y184.524 E14.53470
G1 X60.460 Y181.376 E14.68055
G1 X59.557 Y181.376 E14.71013
G1 X62.704 Y184.524 E14.85599
G1 X61.801 Y184.524 E14.88557
G1 X58.654 Y181.376 E15.03143
G1 X57.751 Y181.376 E15.06101
G1 X60.899 Y184.524 E15.20686
G1 X59.996 Y184.524 E15.23645
G1 X56.849 Y181.376 E15.38230
G1 X55.946 Y181.376 E15.41189
G1 X59.093 Y184.524 E15.55774
G1 X58.190 Y184.524 E15.58733
G1 X55.043 Y181.376 E15.73318
G1 X54.140 Y181.376 E15.76277
G1 X57.287 Y184.524 E15.90862
G1 X56.384 Y184.524 E15.93820
G1 X53.237 Y181.376 E16.08406
G1 X52.334 Y181.376 E16.11364
G1 X55.482 Y184.524 E16.25949
G1 X54.579 Y184.524 E16.28908
G1 X51.432 Y181.376 E16.43493
G1 X50.529 Y181.376 E16.46452
G1 X53.676 Y184.524 E16.61037
G1 X52.773 Y184.524 E16.63996
G1 X49.626 Y181.376 E16.78581
G1 X48.723 Y181.376 E16.81540
G1 X51.870 Y184.524 E16.96125
G1 X50.967 Y184.524 E16.99083
G1 X47.820 Y181.376 E17.13669
G1 X46.917 Y181.376 E17.16627
G1 X50.065 Y184.524 E17.31212
G1 X49.162 Y184.524 E17.34171
G1 X46.015 Y181.376 E17.48756
G1 X45.112 Y181.376 E17.51715
G1 X48.259 Y184.524 E17.66300
G1 X47.356 Y184.524 E17.69259
G1 X44.209 Y181.376 E17.83844
G1 X43.306 Y181.376 E17.86803
G1 X46.453 Y184.524 E18.01388
G1 X45.550 Y184.524 E18.04346
G1 X42.403 Y181.376 E18.18932
G1 X41.500 Y181.376 E18.21890
G1 X44.648 Y184.524 E18.36476
G1 X43.745 Y184.524 E18.39434
G1 X40.598 Y181.376 E18.54019
G1 X39.695 Y181.376 E18.56978
G1 X42.842 Y184.524 E18.71563
G1 X41.939 Y184.524 E18.74522
G1 X38.792 Y181.376 E18.89107
G1 X37.889 Y181.376 E18.92066
G1 X41.036 Y184.524 E19.06651
G1 X40.133 Y184.524 E19.09610
G1 X36.986 Y181.376 E19.24195
G1 X36.083 Y181.376 E19.27153
G1 X39.231 Y184.524 E19.41739
G1 X38.328 Y184.524 E19.44697
G1 X35.181 Y181.376 E19.59282
G1 X34.676 Y181.775 E19.61389
G1 X37.425 Y184.524 E19.74126
G1 X36.522 Y184.524 E19.77085
G1 X34.676 Y182.678 E19.85639
G1 X34.676 Y183.581 E19.88597
G1 X35.619 Y184.524 E19.92967
G1 X34.716 Y184.524 E19.95925
G1 X34.676 Y184.484 E19.96111
G1 X34.716 Y184.524 F9600.000 E19.94431
G1 X35.619 Y184.524 F9600.000 E19.67629
G1 X34.676 Y183.581 F9600.000 E19.28044
G1 X34.676 Y182.678 F9600.000 E19.01241
G1 X34.680 Y182.681 F9600.000 E19.01111
G1 F3000.000 E18.96111
G92 E0
G1 X30.264 Y164.009 F12000.000
G1 E1.00000 F3000.000
G1 X30.264 Y172.157 E1.26703 F2400.000
G1 X29.236 Y172.157 E1.30074
G1 X29.236 Y156.227 E1.82279
G1 X30.264 Y156.227 E1.85651 F2400.000
G1 X30.264 Y163.949 E2.10956
G1 X30.264 Y160.749 F9600.000 E1.15956
G1 F3000.000 E1.10956
G92 E0
G1 X30.264 Y102.209 F12000.000
G1 E1.00000 F3000.000
G1 X30.264 Y150.333 E2.57705 F2400.000
G1 X29.236 Y150.333 E2.61076
G1 X29.236 Y54.427 E5.75364
G1 X30.264 Y54.427 E5.78736 F2400.000
G1 X30.264 Y102.149 E7.35122
G1 X30.264 Y98.949 F9600.000 E6.40122
G1 F3000.000 E6.35122
G92 E0
G1 X30.264 Y32.219 F12000.000
G1 E1.00000 F3000.000
G1 X30.264 Y48.533 E1.53461 F2400.000
G1 X29.236 Y48.533 E1.56833
G1 X29.236 Y15.036 E2.66605
G1 X30.264 Y15.036 E2.69976 F2400.000
G1 X30.264 Y32.159 E3.26091
G1 X30.900 Y32.159 F12000.000
G1 X30.900 Y172.793 E7.86953 F1680.000
G1 X28.600 Y172.793 E7.94490 F1680.000
G1 X28.600 Y155.591 E8.50861
G1 X30.300 Y155.591 E8.56432
G1 X30.300 Y150.969 E8.71580
G1 X28.600 Y150.969 E8.77151
G1 X28.600 Y53.791 E11.95605
G1 X30.300 Y53.791 E12.01175
G1 X30.300 Y49.169 E12.16324
G1 X28.600 Y49.169 E12.21895
G1 X28.600 Y14.400 E13.35833
G1 X30.900 Y14.400 E13.43370
G1 X30.900 Y32.099 E14.01371
G1 X30.848 Y35.299 F9600.000 E13.06371
G1 F3000.000 E13.01371
G92 E0
G1 X30.554 Y172.593 F12000.000
G1 X29.750 Y48.215 F12000.000
G1 E1.00000 F3000.000
G1 X29.750 Y15.353 E1.61116 F600.000
G1 X29.750 Y18.553 F9600.000 E0.66116
G1 F3000.000 E0.61116
G92 E0
G1 X29.750 Y54.745 F12000.000
G1 E1.00000 F3000.000
G1 X29.750 Y150.015 E2.77184 F600.000
G1 X29.750 Y146.815 F9600.000 E1.82184
G1 F3000.000 E1.77184
G92 E0
G1 X29.750 Y156.545 F12000.000
G1 E1.00000 F3000.000
G1 X29.750 Y171.840 E1.28446 F600.000
G1 X29.750 Y168.640 F9600.000 E0.33446
G1 F3000.000 E0.28446
G92 E0
G1 X134.236 Y164.716 F12000.000
G1 E1.00000 F3000.000
G1 X134.236 Y156.227 E1.27820 F2400.000
G1 X135.764 Y156.227 E1.32830 F2400.000
G1 X135.764 Y172.157 E1.85035
G1 X134.236 Y172.157 E1.90045
G1 X134.236 Y164.776 E2.14233
G1 X134.799 Y161.626 F9600.000 E1.19233
G1 F3000.000 E1.14233
G92 E0
G1 X135.764 Y102.441 F12000.000
G1 E1.00000 F3000.000
G1 X135.764 Y150.333 E2.56943 F2400.000
G1 X134.236 Y150.333 E2.61953
G1 X134.236 Y54.427 E5.76241
G1 X135.764 Y54.427 E5.81251 F2400.000
G1 X135.764 Y102.381 E7.38399
G1 X135.764 Y99.181 F9600.000 E6.43399
G1 F3000.000 E6.38399
G92 E0
G1 X135.764 Y32.250 F12000.000
G1 E1.00000 F3000.000
G1 X135.764 Y48.533 E1.53360 F2400.000
G1 X134.236 Y48.533 E1.58369
G1 X134.236 Y15.036 E2.68142
G1 X135.764 Y15.036 E2.73152 F2400.000
G1 X135.764 Y32.190 E3.29368
G1 X136.400 Y32.190 F12000.000
G1 X136.400 Y49.169 E3.85007 F1680.000
G1 X134.300 Y49.169 E3.91889 F1680.000
G1 X134.300 Y53.791 E4.07037
G1 X136.400 Y53.791 E4.13919
G1 X136.400 Y150.969 E7.32372
G1 X134.300 Y150.969 E7.39254
G1 X134.300 Y151.492 E7.40968
G1 X134.300 Y155.591 E7.54402
G1 X136.400 Y155.591 E7.61284
G1 X136.400 Y172.793 E8.17655
G1 X133.600 Y172.793 E8.26831
G1 X133.600 Y14.400 E13.45890
G1 X136.400 Y14.400 E13.55065
G1 X136.400 Y32.130 E14.13168
G1 X136.009 Y35.306 F9600.000 E13.18168
G1 F3000.000 E13.13168
G92 E0
G1 X136.054 Y48.969 F12000.000
G1 X135.000 Y156.545 F12000.000
G1 E1.00000 F3000.000
G1 X135.000 Y171.840 E1.76876 F600.000
G1 X135.000 Y168.640 F9600.000 E0.81876
G1 F3000.000 E0.76876
G92 E0
G1 X135.000 Y150.015 F12000.000
G1 E1.00000 F3000.000
G1 X135.000 Y54.745 E5.78848 F600.000
G1 X135.000 Y57.945 F9600.000 E4.83848
G1 F3000.000 E4.78848
G92 E0
G1 X135.000 Y48.215 F12000.000
G1 E1.00000 F3000.000
G1 X135.000 Y15.353 E2.65170 F600.000
M106 S178
G1 X135.000 Y18.553 F9600.000 E1.70170
G1 F3000.000 E1.65170
G92 E0
G1 Z0.550 F12000.000
G1 X87.441 Y180.550 F12000.000
G1 E1.00000 F3000.000
G1 X132.650 Y180.550 E1.53276 F4800.000
G1 X132.650 Y185.350 E1.58932
G1 X33.850 Y185.350 E2.75361
G1 X33.850 Y180.550 E2.81018
G1 X87.381 Y180.550 E3.44101 F4800.000
G1 X87.381 Y180.150 F12000.000
G1 X133.050 Y180.150 E3.97919 F3360.000
G1 X133.050 Y185.750 E4.04518
G1 X33.450 Y185.750 E5.21890 F3360.000
G1 X33.450 Y180.150 E5.28489
G1 X87.321 Y180.150 E5.91973
G1 X84.138 Y180.481 F9600.000 E4.96973
G1 F3000.000 E4.91973
G92 E0
G1 X132.650 Y185.743 F12000.000
G1 X132.329 Y184.989 F12000.000
G1 E1.00000 F3000.000
G1 X132.289 Y185.029 E1.00105 F6000.000
G1 X131.400 Y185.029 E1.01750
G1 X132.329 Y184.100 E1.04182
G1 X132.329 Y183.211 E1.05828
G1 X130.511 Y185.029 E1.10587
G1 X129.622 Y185.029 E1.12233
G1 X132.329 Y182.322 E1.19319
G1 X132.329 Y181.433 E1.20965
G1 X128.733 Y185.029 E1.30378
G1 X127.844 Y185.029 E1.32024
G1 X132.001 Y180.871 E1.42907
G1 X131.112 Y180.871 E1.44553
G1 X126.955 Y185.029 E1.55436
G1 X126.066 Y185.029 E1.57081
G1 X130.223 Y180.871 E1.67964
G1 X129.334 Y180.871 E1.69610
G1 X125.177 Y185.029 E1.80493
G1 X124.288 Y185.029 E1.82139
G1 X128.445 Y180.871 E1.93022
G1 X127.556 Y180.871 E1.94667
G1 X123.399 Y185.029 E2.05550
G1 X122.510 Y185.029 E2.07196
G1 X126.667 Y180.871 E2.18079
G1 X125.778 Y180.871 E2.19725
G1 X121.621 Y185.029 E2.30608
G1 X120.732 Y185.029 E2.32253
G1 X124.889 Y180.871 E2.43136
G1 X124.000 Y180.871 E2.44782
G1 X119.843 Y185.029 E2.55665
G1 X118.954 Y185.029 E2.57311
G1 X123.111 Y180.871 E2.68194
G1 X122.222 Y180.871 E2.69839
G1 X118.065 Y185.029 E2.80722
G1 X117.176 Y185.029 E2.82368
G1 X121.333 Y180.871 E2.93251
G1 X120.444 Y180.871 E2.94897
G1 X116.287 Y185.029 E3.05780
G1 X115.398 Y185.029 E3.07425
G1 X119.555 Y180.871 E3.18309
G1 X118.666 Y180.871 E3.19954
G1 X114.509 Y185.029 E3.30837
G1 X113.620 Y185.029 E3.32483
G1 X117.777 Y180.871 E3.43366
G1 X116.888 Y180.871 E3.45012
G1 X112.731 Y185.029 E3.55895
G1 X111.842 Y185.029 E3.57540
G1 X115.999 Y180.871 E3.68423
G1 X115.110 Y180.871 E3.70069
G1 X110.953 Y185.029 E3.80952
G1 X110.064 Y185.029 E3.82598
G1 X114.221 Y180.871 E3.93481
G1 X113.332 Y180.871 E3.95126
G1 X109.175 Y185.029 E4.06009
G1 X108.286 Y185.029 E4.07655
G1 X112.443 Y180.871 E4.18538
G1 X111.554 Y180.871 E4.20184
G1 X107.397 Y185.029 E4.31067
G1 X106.508 Y185.029 E4.32712
G1 X110.665 Y180.871 E4.43595
G1 X109.776 Y180.871 E4.45241
G1 X105.619 Y185.029 E4.56124
G1 X104.730 Y185.029 E4.57770
G1 X108.887 Y180.871 E4.68653
G1 X107.998 Y180.871 E4.70298
G1 X103.841 Y185.029 E4.81181
G1 X102.952 Y185.029 E4.82827
G1 X107.109 Y180.871 E4.93710
G1 X106.220 Y180.871 E4.95356
G1 X102.063 Y185.029 E5.06239
G1 X101.174 Y185.029 E5.07884
G1 X105.331 Y180.871 E5.18767
G1 X104.442 Y180.871 E5.20413
G1 X100.285 Y185.029 E5.31296
G1 X99.396 Y185.029 E5.32942
G1 X103.553 Y180.871 E5.43825
G1 X102.664 Y180.871 E5.45470
G1 X98.507 Y185.029 E5.56353
G1 X97.618 Y185.029 E5.57999
G1 X101.775 Y180.871 E5.68882
G1 X100.886 Y180.871 E5.70528
G1 X96.729 Y185.029 E5.81411
G1 X95.840 Y185.029 E5.83056
G1 X99.997 Y180.871 E5.93939
G1 X99.108 Y180.871 E5.95585
G1 X94.951 Y185.029 E6.06468
G1 X94.062 Y185.029 E6.08114
G1 X98.219 Y180.871 E6.18997
G1 X97.330 Y180.871 E6.20642
G1 X93.173 Y185.029 E6.31526
G1 X92.284 Y185.029 E6.33171
G1 X96.441 Y180.871 E6.44054
G1 X95.552 Y180.871 E6.45700
G1 X91.395 Y185.029 E6.56583
G1 X90.506 Y185.029 E6.58228
G1 X94.663 Y180.871 E6.69112
G1 X93.774 Y180.871 E6.70757
G1 X89.617 Y185.029 E6.81640
G1 X88.728 Y185.029 E6.83286
G1 X92.885 Y180.871 E6.94169
G1 X91.996 Y180.871 E6.95815
G1 X87.839 Y185.029 E7.06698
G1 X86.950 Y185.029 E7.08343
G1 X91.107 Y180.871 E7.19226
G1 X90.218 Y180.871 E7.20872
G1 X86.061 Y185.029 E7.31755
G1 X85.172 Y185.029 E7.33401
G1 X89.329 Y180.871 E7.44284
G1 X88.440 Y180.871 E7.45929
G1 X84.283 Y185.029 E7.56812
