; generated by Slic3r 1.1.7 on 2015-05-27 at 10:45:48

; perimeters extrusion width = 0.40mm
; infill extrusion width = 0.67mm
; solid infill extrusion width = 0.67mm
; top infill extrusion width = 0.67mm

G21 ; set units to millimeters
M107
M92 E445; set custom extruder stepps
G0 Z1 ;Go to safe Z position
G28 ; home all axes
M301 P34.91 I1.90 D160.73; set custom PID parameters
G90 ; use absolute coordinates
G92 E0
M82 ; use absolute distances for extrusion
G1 F1800.000 E-0.60000
G92 E0
G1 Z0.400 F12000.000
G1 X21.733 Y11.725 F12000.000
G1 E0.60000 F1800.000
G1 X22.877 Y9.720 E0.69716 F1080.000
G1 X24.633 Y8.220 E0.79432
G1 X26.793 Y7.405 E0.89148
G1 X28.050 Y7.286 E0.94461
G1 X136.950 Y7.286 E5.52707
G1 X139.225 Y7.683 E5.62423
G1 X141.230 Y8.827 E5.72139 F1080.000
G1 X142.730 Y10.583 E5.81855
G1 X143.545 Y12.743 E5.91571
G1 X143.664 Y14.000 E5.96885
G1 X143.664 Y180.750 E12.98562
G1 X143.267 Y183.025 E13.08278
G1 X142.123 Y185.031 E13.17994
G1 X140.367 Y186.530 E13.27710
G1 X138.207 Y187.346 E13.37426
G1 X136.950 Y187.465 E13.42740
G1 X28.050 Y187.465 E18.00985
G1 X25.775 Y187.068 E18.10701
G1 X23.770 Y185.923 E18.20417
G1 X22.270 Y184.168 E18.30133
G1 X21.455 Y182.008 E18.39849
G1 X21.336 Y180.750 E18.45163
G1 X21.336 Y14.000 E25.46840
G1 X21.723 Y11.785 E25.56304
G1 F1800.000 E24.96304
G92 E0
G1 X132.563 Y13.852 F12000.000
G1 E0.60000 F1800.000
G1 X132.772 Y13.643 E0.61245 F1080.000
G1 X137.098 Y13.643 E0.79448
G1 X137.307 Y13.852 E0.80692
G1 X137.307 Y52.676 E2.44061
G1 X137.098 Y52.885 E2.45306
G1 X135.225 Y52.885 E2.53185
G1 X134.807 Y53.303 E2.55674
G1 X134.807 Y55.757 E2.65998
G1 X135.225 Y56.175 E2.68487
G1 X137.098 Y56.175 E2.76366
G1 X137.307 Y56.384 E2.77611
G1 X137.307 Y154.476 E6.90376
G1 X137.098 Y154.685 E6.91621
G1 X135.225 Y154.685 E6.99501
G1 X134.807 Y155.103 E7.01990
G1 X134.807 Y157.557 E7.12313
G1 X135.225 Y157.975 E7.14802
G1 X137.098 Y157.975 E7.22682
G1 X137.307 Y158.184 E7.23926
G1 X137.307 Y180.898 E8.19507
G1 X137.098 Y181.107 E8.20752
G1 X132.772 Y181.107 E8.38954
G1 X132.563 Y180.898 E8.40199
G1 X132.563 Y13.912 E15.42869
G1 F1800.000 E14.82869
G92 E0
G1 X27.693 Y13.852 F12000.000
G1 E0.60000 F1800.000
G1 X27.902 Y13.643 E0.61245 F1080.000
G1 X31.268 Y13.643 E0.75408
G1 X31.477 Y13.852 E0.76653
G1 X31.477 Y180.898 E7.79575
G1 X31.268 Y181.107 E7.80820
G1 X27.902 Y181.107 E7.94983
G1 X27.693 Y180.898 E7.96228
G1 X27.693 Y158.184 E8.91808
G1 X27.902 Y157.975 E8.93053
G1 X28.975 Y157.975 E8.97566
G1 X29.393 Y157.557 E9.00055
G1 X29.393 Y155.103 E9.10378
G1 X28.975 Y154.685 E9.12867
G1 X27.902 Y154.685 E9.17380
G1 X27.693 Y154.476 E9.18625
G1 X27.693 Y56.384 E13.31390
G1 X27.902 Y56.175 E13.32635
G1 X28.975 Y56.175 E13.37148
G1 X29.393 Y55.757 E13.39638
G1 X29.393 Y53.303 E13.49961
G1 X28.975 Y52.885 E13.52450
G1 X27.902 Y52.885 E13.56963
G1 X27.693 Y52.676 E13.58208
G1 X27.693 Y13.912 E15.21324
G1 F1800.000 E14.61324
G92 E0
G1 X134.050 Y153.928 F12000.000
G1 E0.60000 F1800.000
G1 X134.050 Y158.732 E0.80215 F693.000
G1 X136.550 Y158.732 E0.90735
G1 X136.550 Y180.350 E1.81704
G1 X133.320 Y180.350 E1.95296
G1 X133.320 Y14.400 E8.93607
G1 X136.550 Y14.400 E9.07198
G1 X136.550 Y52.128 E10.65956
G1 X134.050 Y52.128 E10.76476
G1 X134.050 Y56.932 E10.96691
G1 X136.550 Y56.932 E11.07211
G1 X136.550 Y153.928 E15.15365
G1 X134.110 Y153.928 E15.25632
G1 X133.650 Y153.928 F12000.000
G1 X134.034 Y51.414 F12000.000
G1 X134.034 Y15.114 E16.78379 F990.000
G1 X135.836 Y15.114 E16.85961
G1 X135.836 Y51.414 E18.38708
G1 X134.094 Y51.414 E18.46037
G1 X134.034 Y57.646 F12000.000
G1 X135.836 Y57.646 E18.53618 F990.000
G1 X135.836 Y153.214 E22.55762
G1 X134.034 Y153.214 E22.63343
G1 X134.034 Y57.706 E26.65234
G1 X134.034 Y159.446 F12000.000
G1 X135.836 Y159.446 E26.72816 F990.000
G1 X135.836 Y179.636 E27.57775
G1 X134.034 Y179.636 E27.65356
G1 X134.034 Y159.506 E28.50062
G1 X134.935 Y159.803 F12000.000
G1 X134.935 Y179.279 E29.77918 F360.000
G1 F1800.000 E29.17918
G92 E0
G1 X134.935 Y152.857 F12000.000
G1 E0.60000 F1800.000
G1 X134.935 Y58.003 E6.82696 F360.000
G1 F1800.000 E6.22696
G92 E0
G1 X135.950 Y57.676 F12000.000
G1 X138.950 Y59.528 F12000.000
G1 X138.950 Y54.528 F12000.000
G1 X135.950 Y51.528 F12000.000
G1 X134.935 Y51.057 F12000.000
G1 E0.60000 F1800.000
G1 X134.935 Y15.471 E2.93612 F360.000
G1 F1800.000 E2.33612
G92 E0
G1 X30.435 Y56.532 F12000.000
G1 E0.60000 F1800.000
G1 X30.435 Y52.528 E0.76849 F693.000
G1 X30.435 Y158.332 F12000.000
G1 X30.435 Y154.328 E0.93698 F693.000
G1 X30.720 Y52.128 F12000.000
G1 X28.450 Y52.128 E1.03250 F693.000
G1 X28.450 Y14.400 E2.62007
G1 X30.720 Y14.400 E2.71559
G1 X30.720 Y52.068 E4.30064
G1 X30.374 Y51.928 F12000.000
G1 X30.006 Y51.414 F12000.000
G1 X29.164 Y51.414 E4.33606 F990.000
G1 X29.164 Y15.114 E5.86353
G1 X30.006 Y15.114 E5.89894
G1 X30.006 Y51.354 E7.42389
G1 X30.720 Y56.932 F12000.000
G1 X30.720 Y153.928 E11.50543 F693.000
G1 X28.450 Y153.928 E11.60095
G1 X28.450 Y56.932 E15.68249
G1 X30.660 Y56.932 E15.77549
G1 X30.520 Y57.278 F12000.000
G1 X30.006 Y57.646 F12000.000
G1 X30.006 Y153.214 E19.79692 F990.000
G1 X29.164 Y153.214 E19.83234
G1 X29.164 Y57.646 E23.85378
G1 X29.946 Y57.646 E23.88667
G1 X30.720 Y158.732 F12000.000
G1 X30.720 Y180.350 E24.79636 F693.000
G1 X28.450 Y180.350 E24.89188
G1 X28.450 Y158.732 E25.80158
G1 X30.660 Y158.732 E25.89457
G1 X30.520 Y159.078 F12000.000
G1 X30.006 Y159.446 F12000.000
G1 X30.006 Y179.636 E26.74416 F990.000
G1 X29.164 Y179.636 E26.77958
G1 X29.164 Y159.446 E27.62916
G1 X29.946 Y159.446 E27.66206
M106 S101
G1 F1800.000 E27.06206
G92 E0
G1 Z0.600 F12000.000
G1 X133.920 Y159.782 F12000.000
G1 E0.60000 F1800.000
G1 X135.950 Y159.782 E0.62392 F3300.000
G1 X135.950 Y180.870 E0.87243
G1 X133.920 Y180.870 E0.89636
G1 X133.920 Y159.842 E1.14416
G1 X133.920 Y152.878 F12000.000
G1 X133.920 Y57.982 E2.26245 F3300.000
G1 X135.950 Y57.982 E2.28638
G1 X135.950 Y152.878 E3.40467
G1 X133.980 Y152.878 E3.42788
G1 X133.920 Y51.078 F12000.000
G1 X133.920 Y15.000 E3.85304 F3300.000
G1 X135.950 Y15.000 E3.87696
G1 X135.950 Y51.078 E4.30212
G1 X133.980 Y51.078 E4.32533
G1 X133.850 Y51.478 F12000.000
G1 X133.850 Y57.582 E4.39726 F3300.000
G1 X136.350 Y57.582 E4.42672
G1 X136.350 Y153.278 E5.55444
G1 X133.850 Y153.278 E5.58390
G1 X133.850 Y159.382 E5.65583
G1 X136.350 Y159.382 E5.68529
G1 X136.350 Y180.950 E5.93946
M106 S255
G1 X136.350 Y181.270 E5.94538 F3600.000
G1 X133.520 Y181.270 E5.99776
G1 X133.520 Y180.950 E6.00368
M106 S101
G1 X133.520 Y14.600 E7.96401 F3300.000
G1 X136.350 Y14.600 E7.99736
G1 X136.350 Y51.478 E8.43195
G1 X133.910 Y51.478 E8.46070
G1 X134.250 Y51.878 F12000.000
G1 X134.250 Y57.182 E8.52320 F2310.000
G1 X136.750 Y57.182 E8.55266
G1 X136.750 Y153.678 E9.68981
G1 X134.250 Y153.678 E9.71927
G1 X134.250 Y158.982 E9.78177
G1 X136.750 Y158.982 E9.81123
G1 X136.750 Y180.950 E10.07011
M106 S255
G1 X136.750 Y181.670 E10.08344 F3600.000
G1 X133.120 Y181.670 E10.15063
G1 X133.120 Y180.950 E10.16395
M106 S101
G1 X133.120 Y14.200 E12.12899 F2310.000
G1 X136.750 Y14.200 E12.17177
G1 X136.750 Y51.878 E12.61578
G1 X134.310 Y51.878 E12.64454
G1 X133.124 Y180.550 F12000.000
G1 X135.629 Y180.509 F12000.000
G1 X135.589 Y180.549 E12.64558 F3600.000
G1 X134.682 Y180.549 E12.66236
G1 X135.629 Y179.602 E12.68714
G1 X135.629 Y178.696 E12.70391
G1 X134.241 Y180.083 E12.74023
G1 X134.241 Y179.177 E12.75701
G1 X135.629 Y177.790 E12.79333
G1 X135.629 Y176.883 E12.81010
G1 X134.241 Y178.270 E12.84642
G1 X134.241 Y177.364 E12.86320
G1 X135.629 Y175.977 E12.89952
G1 X135.629 Y175.070 E12.91629
G1 X134.241 Y176.458 E12.95261
G1 X134.241 Y175.551 E12.96939
G1 X135.629 Y174.164 E13.00570
G1 X135.629 Y173.258 E13.02248
G1 X134.241 Y174.645 E13.05880
G1 X134.241 Y173.739 E13.07558
G1 X135.629 Y172.351 E13.11189
G1 X135.629 Y171.445 E13.12867
G1 X134.241 Y172.832 E13.16499
G1 X134.241 Y171.926 E13.18177
G1 X135.629 Y170.539 E13.21808
G1 X135.629 Y169.632 E13.23486
G1 X134.241 Y171.020 E13.27118
G1 X134.241 Y170.113 E13.28796
G1 X135.629 Y168.726 E13.32427
G1 X135.629 Y167.819 E13.34105
G1 X134.241 Y169.207 E13.37737
G1 X134.241 Y168.300 E13.39415
G1 X135.629 Y166.913 E13.43046
G1 X135.629 Y166.007 E13.44724
G1 X134.241 Y167.394 E13.48356
G1 X134.241 Y166.488 E13.50033
G1 X135.629 Y165.100 E13.53665
G1 X135.629 Y164.194 E13.55343
G1 X134.241 Y165.581 E13.58975
G1 X134.241 Y164.675 E13.60652
G1 X135.629 Y163.288 E13.64284
G1 X135.629 Y162.381 E13.65962
G1 X134.241 Y163.769 E13.69594
G1 X134.241 Y162.862 E13.71271
G1 X135.629 Y161.475 E13.74903
G1 X135.629 Y160.569 E13.76581
G1 X134.241 Y161.956 E13.80213
G1 X134.241 Y161.049 E13.81890
G1 X135.188 Y160.103 E13.84368
G1 X134.281 Y160.103 E13.86045
G1 X134.241 Y160.143 E13.86150
G1 F1800.000 E13.26150
G92 E0
G1 X135.950 Y164.633 F12000.000
G1 X138.950 Y164.078 F12000.000
G1 X138.950 Y149.078 F12000.000
G1 X135.950 Y149.025 F12000.000
G1 X135.629 Y152.517 F12000.000
G1 E0.60000 F1800.000
G1 X135.589 Y152.557 E0.60105 F3600.000
G1 X134.696 Y152.557 E0.61758
G1 X135.629 Y151.624 E0.64201
G1 X135.629 Y150.731 E0.65854
G1 X134.241 Y152.118 E0.69485
G1 X134.241 Y151.225 E0.71139
G1 X135.629 Y149.838 E0.74770
G1 X135.629 Y148.945 E0.76424
G1 X134.241 Y150.332 E0.80055
G1 X134.241 Y149.439 E0.81708
G1 X135.629 Y148.051 E0.85340
G1 X135.629 Y147.158 E0.86993
G1 X134.241 Y148.546 E0.90625
G1 X134.241 Y147.653 E0.92278
G1 X135.629 Y146.265 E0.95910
G1 X135.629 Y145.372 E0.97563
G1 X134.241 Y146.759 E1.01195
G1 X134.241 Y145.866 E1.02848
G1 X135.629 Y144.479 E1.06480
G1 X135.629 Y143.586 E1.08133
G1 X134.241 Y144.973 E1.11765
G1 X134.241 Y144.080 E1.13418
G1 X135.629 Y142.693 E1.17049
G1 X135.629 Y141.800 E1.18703
G1 X134.241 Y143.187 E1.22334
G1 X134.241 Y142.294 E1.23988
G1 X135.629 Y140.907 E1.27619
G1 X135.629 Y140.014 E1.29272
G1 X134.241 Y141.401 E1.32904
G1 X134.241 Y140.508 E1.34557
G1 X135.629 Y139.121 E1.38189
G1 X135.629 Y138.227 E1.39842
G1 X134.241 Y139.615 E1.43474
G1 X134.241 Y138.722 E1.45127
G1 X135.629 Y137.334 E1.48759
G1 X135.629 Y136.441 E1.50412
G1 X134.241 Y137.829 E1.54044
G1 X134.241 Y136.935 E1.55697
G1 X135.629 Y135.548 E1.59329
G1 X135.629 Y134.655 E1.60982
G1 X134.241 Y136.042 E1.64613
G1 X134.241 Y135.149 E1.66267
G1 X135.629 Y133.762 E1.69898
G1 X135.629 Y132.869 E1.71552
G1 X134.241 Y134.256 E1.75183
G1 X134.241 Y133.363 E1.76836
G1 X135.629 Y131.976 E1.80468
G1 X135.629 Y131.083 E1.82121
G1 X134.241 Y132.470 E1.85753
G1 X134.241 Y131.577 E1.87406
G1 X135.629 Y130.190 E1.91038
G1 X135.629 Y129.297 E1.92691
G1 X134.241 Y130.684 E1.96323
G1 X134.241 Y129.791 E1.97976
G1 X135.629 Y128.403 E2.01608
G1 X135.629 Y127.510 E2.03261
G1 X134.241 Y128.898 E2.06893
G1 X134.241 Y128.005 E2.08546
G1 X135.629 Y126.617 E2.12178
G1 X135.629 Y125.724 E2.13831
G1 X134.241 Y127.111 E2.17462
G1 X134.241 Y126.218 E2.19116
G1 X135.629 Y124.831 E2.22747
G1 X135.629 Y123.938 E2.24400
G1 X134.241 Y125.325 E2.28032
G1 X134.241 Y124.432 E2.29685
G1 X135.629 Y123.045 E2.33317
G1 X135.629 Y122.152 E2.34970
G1 X134.241 Y123.539 E2.38602
G1 X134.241 Y122.646 E2.40255
G1 X135.629 Y121.259 E2.43887
G1 X135.629 Y120.366 E2.45540
G1 X134.241 Y121.753 E2.49172
G1 X134.241 Y120.860 E2.50825
G1 X135.629 Y119.472 E2.54457
G1 X135.629 Y118.579 E2.56110
G1 X134.241 Y119.967 E2.59742
G1 X134.241 Y119.074 E2.61395
G1 X135.629 Y117.686 E2.65026
G1 X135.629 Y116.793 E2.66680
G1 X134.241 Y118.180 E2.70311
G1 X134.241 Y117.287 E2.71964
G1 X135.629 Y115.900 E2.75596
G1 X135.629 Y115.007 E2.77249
G1 X134.241 Y116.394 E2.80881
G1 X134.241 Y115.501 E2.82534
G1 X135.629 Y114.114 E2.86166
G1 X135.629 Y113.221 E2.87819
G1 X134.241 Y114.608 E2.91451
G1 X134.241 Y113.715 E2.93104
G1 X135.629 Y112.328 E2.96736
G1 X135.629 Y111.435 E2.98389
G1 X134.241 Y112.822 E3.02021
G1 X134.241 Y111.929 E3.03674
G1 X135.629 Y110.542 E3.07306
G1 X135.629 Y109.648 E3.08959
G1 X134.241 Y111.036 E3.12590
G1 X134.241 Y110.143 E3.14244
G1 X135.629 Y108.755 E3.17875
G1 X135.629 Y107.862 E3.19528
G1 X134.241 Y109.250 E3.23160
G1 X134.241 Y108.356 E3.24813
G1 X135.629 Y106.969 E3.28445
G1 X135.629 Y106.076 E3.30098
G1 X134.241 Y107.463 E3.33730
G1 X134.241 Y106.570 E3.35383
G1 X135.629 Y105.183 E3.39015
G1 X135.629 Y104.290 E3.40668
G1 X134.241 Y105.677 E3.44300
G1 X134.241 Y104.784 E3.45953
G1 X135.629 Y103.397 E3.49585
G1 X135.629 Y102.504 E3.51238
G1 X134.241 Y103.891 E3.54870
G1 X134.241 Y102.998 E3.56523
G1 X135.629 Y101.611 E3.60154
G1 X135.629 Y100.718 E3.61808
G1 X134.241 Y102.105 E3.65439
G1 X134.241 Y101.212 E3.67092
G1 X135.629 Y99.824 E3.70724
G1 X135.629 Y98.931 E3.72377
G1 X134.241 Y100.319 E3.76009
G1 X134.241 Y99.426 E3.77662
G1 X135.629 Y98.038 E3.81294
G1 X135.629 Y97.145 E3.82947
G1 X134.241 Y98.532 E3.86579
G1 X134.241 Y97.639 E3.88232
G1 X135.629 Y96.252 E3.91864
G1 X135.629 Y95.359 E3.93517
G1 X134.241 Y96.746 E3.97149
G1 X134.241 Y95.853 E3.98802
G1 X135.629 Y94.466 E4.02434
G1 X135.629 Y93.573 E4.04087
G1 X134.241 Y94.960 E4.07718
G1 X134.241 Y94.067 E4.09372
G1 X135.629 Y92.680 E4.13003
G1 X135.629 Y91.787 E4.14657
G1 X134.241 Y93.174 E4.18288
G1 X134.241 Y92.281 E4.19941
G1 X135.629 Y90.893 E4.23573
G1 X135.629 Y90.000 E4.25226
G1 X134.241 Y91.388 E4.28858
G1 X134.241 Y90.495 E4.30511
G1 X135.629 Y89.107 E4.34143
G1 X135.629 Y88.214 E4.35796
G1 X134.241 Y89.602 E4.39428
G1 X134.241 Y88.708 E4.41081
G1 X135.629 Y87.321 E4.44713
G1 X135.629 Y86.428 E4.46366
G1 X134.241 Y87.815 E4.49998
G1 X134.241 Y86.922 E4.51651
G1 X135.629 Y85.535 E4.55282
G1 X135.629 Y84.642 E4.56936
G1 X134.241 Y86.029 E4.60567
G1 X134.241 Y85.136 E4.62221
G1 X135.629 Y83.749 E4.65852
G1 X135.629 Y82.856 E4.67505
G1 X134.241 Y84.243 E4.71137
G1 X134.241 Y83.350 E4.72790
G1 X135.629 Y81.963 E4.76422
G1 X135.629 Y81.069 E4.78075
G1 X134.241 Y82.457 E4.81707
G1 X134.241 Y81.564 E4.83360
G1 X135.629 Y80.176 E4.86992
G1 X135.629 Y79.283 E4.88645
G1 X134.241 Y80.671 E4.92277
G1 X134.241 Y79.777 E4.93930
G1 X135.629 Y78.390 E4.97562
G1 X135.629 Y77.497 E4.99215
G1 X134.241 Y78.884 E5.02846
G1 X134.241 Y77.991 E5.04500
G1 X135.629 Y76.604 E5.08131
G1 X135.629 Y75.711 E5.09785
G1 X134.241 Y77.098 E5.13416
G1 X134.241 Y76.205 E5.15069
G1 X135.629 Y74.818 E5.18701
G1 X135.629 Y73.925 E5.20354
G1 X134.241 Y75.312 E5.23986
G1 X134.241 Y74.419 E5.25639
G1 X135.629 Y73.032 E5.29271
G1 X135.629 Y72.139 E5.30924
G1 X134.241 Y73.526 E5.34556
G1 X134.241 Y72.633 E5.36209
G1 X135.629 Y71.245 E5.39841
G1 X135.629 Y70.352 E5.41494
G1 X134.241 Y71.740 E5.45126
G1 X134.241 Y70.847 E5.46779
G1 X135.629 Y69.459 E5.50410
G1 X135.629 Y68.566 E5.52064
G1 X134.241 Y69.953 E5.55695
G1 X134.241 Y69.060 E5.57349
G1 X135.629 Y67.673 E5.60980
G1 X135.629 Y66.780 E5.62633
G1 X134.241 Y68.167 E5.66265
G1 X134.241 Y67.274 E5.67918
G1 X135.629 Y65.887 E5.71550
G1 X135.629 Y64.994 E5.73203
G1 X134.241 Y66.381 E5.76835
G1 X134.241 Y65.488 E5.78488
G1 X135.629 Y64.101 E5.82120
G1 X135.629 Y63.208 E5.83773
G1 X134.241 Y64.595 E5.87405
G1 X134.241 Y63.702 E5.89058
G1 X135.629 Y62.314 E5.92690
G1 X135.629 Y61.421 E5.94343
G1 X134.241 Y62.809 E5.97974
G1 X134.241 Y61.916 E5.99628
G1 X135.629 Y60.528 E6.03259
G1 X135.629 Y59.635 E6.04913
G1 X134.241 Y61.023 E6.08544
G1 X134.241 Y60.129 E6.10197
G1 X135.629 Y58.742 E6.13829
G1 X135.174 Y58.303 E6.14998
G1 X134.241 Y59.236 E6.17441
G1 X134.241 Y58.343 E6.19094
G1 X134.281 Y58.303 E6.19199
G1 F1800.000 E5.59199
G92 E0
G1 X135.950 Y59.025 F12000.000
G1 X138.950 Y59.078 F12000.000
G1 X138.950 Y44.278 F12000.000
G1 X135.950 Y44.862 F12000.000
G1 X135.629 Y50.717 F12000.000
G1 E0.60000 F1800.000
G1 X135.589 Y50.757 E0.60105 F3600.000
