; generated by Slic3r 1.1.7 on 2015-05-28 at 15:45:45

; perimeters extrusion width = 0.40mm
; infill extrusion width = 0.67mm
; solid infill extrusion width = 0.67mm
; top infill extrusion width = 0.67mm

G21 ; set units to millimeters
M107
M92 E445; set custom extruder stepps
G0 Z1 ;Go to safe Z position
G28 ; home all axes
M301 P34.91 I1.90 D160.73; set custom PID parameters
G90 ; use absolute coordinates
G92 E0
M82 ; use absolute distances for extrusion
G1 F3000.000 E-1.00000
G92 E0
G1 Z0.350 F12000.000
G1 X34.549 Y180.936 F12000.000
G1 E1.00000 F3000.000
G1 X132.314 Y180.936 E4.20380 F2400.000
G1 X132.314 Y184.964 E4.33582
G1 X34.286 Y184.964 E7.54826
G1 X34.286 Y180.936 E7.68028
G1 X34.489 Y180.936 E7.68695 F2400.000
G1 X34.489 Y180.300 F12000.000
G1 X132.950 Y180.300 E10.91354 F1680.000
G1 X132.950 Y185.600 E11.08723
G1 X33.650 Y185.600 E14.34132 F1680.000
G1 X33.650 Y180.300 E14.51500
G1 X34.429 Y180.300 E14.54053
G1 X33.964 Y183.466 F9600.000 E13.59053
G1 F3000.000 E13.54053
G92 E0
G1 X132.550 Y185.593 F12000.000
G1 X131.834 Y181.376 F12000.000
G1 E1.00000 F3000.000
G1 X131.874 Y181.416 E1.00185 F3000.000
G1 X131.874 Y182.319 E1.03144
G1 X130.931 Y181.376 E1.07513
G1 X130.028 Y181.376 E1.10472
G1 X131.874 Y183.222 E1.19026
G1 X131.874 Y184.125 E1.21984
G1 X129.125 Y181.376 E1.34722
G1 X128.222 Y181.376 E1.37681
G1 X131.369 Y184.524 E1.52266
G1 X130.467 Y184.524 E1.55224
G1 X127.319 Y181.376 E1.69810
G1 X126.417 Y181.376 E1.72768
G1 X129.564 Y184.524 E1.87354
G1 X128.661 Y184.524 E1.90312
G1 X125.514 Y181.376 E2.04897
G1 X124.611 Y181.376 E2.07856
G1 X127.758 Y184.524 E2.22441
G1 X126.855 Y184.524 E2.25400
G1 X123.708 Y181.376 E2.39985
G1 X122.805 Y181.376 E2.42944
G1 X125.952 Y184.524 E2.57529
G1 X125.050 Y184.524 E2.60488
G1 X121.902 Y181.376 E2.75073
G1 X121.000 Y181.376 E2.78031
G1 X124.147 Y184.524 E2.92617
G1 X123.244 Y184.524 E2.95575
G1 X120.097 Y181.376 E3.10161
G1 X119.194 Y181.376 E3.13119
G1 X122.341 Y184.524 E3.27704
G1 X121.438 Y184.524 E3.30663
G1 X118.291 Y181.376 E3.45248
G1 X117.388 Y181.376 E3.48207
G1 X120.535 Y184.524 E3.62792
G1 X119.633 Y184.524 E3.65751
G1 X116.485 Y181.376 E3.80336
G1 X115.583 Y181.376 E3.83295
G1 X118.730 Y184.524 E3.97880
G1 X117.827 Y184.524 E4.00838
G1 X114.680 Y181.376 E4.15424
G1 X113.777 Y181.376 E4.18382
G1 X116.924 Y184.524 E4.32968
G1 X116.021 Y184.524 E4.35926
G1 X112.874 Y181.376 E4.50511
G1 X111.971 Y181.376 E4.53470
G1 X115.118 Y184.524 E4.68055
G1 X114.216 Y184.524 E4.71014
G1 X111.068 Y181.376 E4.85599
G1 X110.166 Y181.376 E4.88558
G1 X113.313 Y184.524 E5.03143
G1 X112.410 Y184.524 E5.06102
G1 X109.263 Y181.376 E5.20687
G1 X108.360 Y181.376 E5.23645
G1 X111.507 Y184.524 E5.38231
G1 X110.604 Y184.524 E5.41189
G1 X107.457 Y181.376 E5.55775
G1 X106.554 Y181.376 E5.58733
G1 X109.701 Y184.524 E5.73318
G1 X108.799 Y184.524 E5.76277
G1 X105.651 Y181.376 E5.90862
G1 X104.749 Y181.376 E5.93821
G1 X107.896 Y184.524 E6.08406
G1 X106.993 Y184.524 E6.11365
G1 X103.846 Y181.376 E6.25950
G1 X102.943 Y181.376 E6.28909
G1 X106.090 Y184.524 E6.43494
G1 X105.187 Y184.524 E6.46452
G1 X102.040 Y181.376 E6.61038
G1 X101.137 Y181.376 E6.63996
G1 X104.284 Y184.524 E6.78582
G1 X103.382 Y184.524 E6.81540
G1 X100.234 Y181.376 E6.96125
G1 X99.332 Y181.376 E6.99084
G1 X102.479 Y184.524 E7.13669
G1 X101.576 Y184.524 E7.16628
G1 X98.429 Y181.376 E7.31213
G1 X97.526 Y181.376 E7.34172
G1 X100.673 Y184.524 E7.48757
G1 X99.770 Y184.524 E7.51716
G1 X96.623 Y181.376 E7.66301
G1 X95.720 Y181.376 E7.69259
G1 X98.867 Y184.524 E7.83845
G1 X97.965 Y184.524 E7.86803
G1 X94.817 Y181.376 E8.01389
G1 X93.915 Y181.376 E8.04347
G1 X97.062 Y184.524 E8.18932
G1 X96.159 Y184.524 E8.21891
G1 X93.012 Y181.376 E8.36476
G1 X92.109 Y181.376 E8.39435
G1 X95.256 Y184.524 E8.54020
G1 X94.353 Y184.524 E8.56979
G1 X91.206 Y181.376 E8.71564
G1 X90.303 Y181.376 E8.74523
G1 X93.450 Y184.524 E8.89108
G1 X92.548 Y184.524 E8.92067
G1 X89.400 Y181.376 E9.06652
G1 X88.498 Y181.376 E9.09610
G1 X91.645 Y184.524 E9.24196
G1 X90.742 Y184.524 E9.27154
G1 X87.595 Y181.376 E9.41739
G1 X86.692 Y181.376 E9.44698
G1 X89.839 Y184.524 E9.59283
G1 X88.936 Y184.524 E9.62242
G1 X85.789 Y181.376 E9.76827
G1 X84.886 Y181.376 E9.79786
G1 X88.033 Y184.524 E9.94371
G1 X87.131 Y184.524 E9.97330
G1 X83.983 Y181.376 E10.11915
G1 X83.081 Y181.376 E10.14874
G1 X86.228 Y184.524 E10.29459
G1 X85.325 Y184.524 E10.32417
G1 X82.178 Y181.376 E10.47003
G1 X81.275 Y181.376 E10.49961
G1 X84.422 Y184.524 E10.64546
G1 X83.519 Y184.524 E10.67505
G1 X80.372 Y181.376 E10.82090
G1 X79.469 Y181.376 E10.85049
G1 X82.616 Y184.524 E10.99634
G1 X81.714 Y184.524 E11.02593
G1 X78.567 Y181.376 E11.17178
G1 X77.664 Y181.376 E11.20137
G1 X80.811 Y184.524 E11.34722
G1 X79.908 Y184.524 E11.37680
G1 X76.761 Y181.376 E11.52266
G1 X75.858 Y181.376 E11.55224
G1 X79.005 Y184.524 E11.69810
G1 X78.102 Y184.524 E11.72768
G1 X74.955 Y181.376 E11.87353
G1 X74.052 Y181.376 E11.90312
G1 X77.199 Y184.524 E12.04897
G1 X76.297 Y184.524 E12.07856
G1 X73.150 Y181.376 E12.22441
G1 X72.247 Y181.376 E12.25400
G1 X75.394 Y184.524 E12.39985
G1 X74.491 Y184.524 E12.42944
G1 X71.344 Y181.376 E12.57529
G1 X70.441 Y181.376 E12.60487
G1 X73.588 Y184.524 E12.75073
G1 X72.685 Y184.524 E12.78031
G1 X69.538 Y181.376 E12.92617
G1 X68.635 Y181.376 E12.95575
G1 X71.783 Y184.524 E13.10160
G1 X70.880 Y184.524 E13.13119
G1 X67.733 Y181.376 E13.27704
G1 X66.830 Y181.376 E13.30663
G1 X69.977 Y184.524 E13.45248
G1 X69.074 Y184.524 E13.48207
G1 X65.927 Y181.376 E13.62792
G1 X65.024 Y181.376 E13.65751
G1 X68.171 Y184.524 E13.80336
G1 X67.268 Y184.524 E13.83294
G1 X64.121 Y181.376 E13.97880
G1 X63.218 Y181.376 E14.00838
G1 X66.366 Y184.524 E14.15423
G1 X65.463 Y184.524 E14.18382
G1 X62.316 Y181.376 E14.32967
G1 X61.413 Y181.376 E14.35926
G1 X64.560 Y184.524 E14.50511
G1 X63.657 Y184.524 E14.53470
G1 X60.510 Y181.376 E14.68055
G1 X59.607 Y181.376 E14.71014
G1 X62.754 Y184.524 E14.85599
G1 X61.851 Y184.524 E14.88557
G1 X58.704 Y181.376 E15.03143
G1 X57.801 Y181.376 E15.06101
G1 X60.949 Y184.524 E15.20687
G1 X60.046 Y184.524 E15.23645
G1 X56.899 Y181.376 E15.38230
G1 X55.996 Y181.376 E15.41189
G1 X59.143 Y184.524 E15.55774
G1 X58.240 Y184.524 E15.58733
G1 X55.093 Y181.376 E15.73318
G1 X54.190 Y181.376 E15.76277
G1 X57.337 Y184.524 E15.90862
G1 X56.434 Y184.524 E15.93821
G1 X53.287 Y181.376 E16.08406
G1 X52.384 Y181.376 E16.11364
G1 X55.532 Y184.524 E16.25950
G1 X54.629 Y184.524 E16.28908
G1 X51.482 Y181.376 E16.43494
G1 X50.579 Y181.376 E16.46452
G1 X53.726 Y184.524 E16.61037
G1 X52.823 Y184.524 E16.63996
G1 X49.676 Y181.376 E16.78581
G1 X48.773 Y181.376 E16.81540
G1 X51.920 Y184.524 E16.96125
G1 X51.017 Y184.524 E16.99084
G1 X47.870 Y181.376 E17.13669
G1 X46.967 Y181.376 E17.16628
G1 X50.115 Y184.524 E17.31213
G1 X49.212 Y184.524 E17.34171
G1 X46.065 Y181.376 E17.48757
G1 X45.162 Y181.376 E17.51715
G1 X48.309 Y184.524 E17.66301
G1 X47.406 Y184.524 E17.69259
G1 X44.259 Y181.376 E17.83844
G1 X43.356 Y181.376 E17.86803
G1 X46.503 Y184.524 E18.01388
G1 X45.600 Y184.524 E18.04347
G1 X42.453 Y181.376 E18.18932
G1 X41.550 Y181.376 E18.21891
G1 X44.698 Y184.524 E18.36476
G1 X43.795 Y184.524 E18.39435
G1 X40.648 Y181.376 E18.54020
G1 X39.745 Y181.376 E18.56978
G1 X42.892 Y184.524 E18.71564
G1 X41.989 Y184.524 E18.74522
G1 X38.842 Y181.376 E18.89107
G1 X37.939 Y181.376 E18.92066
G1 X41.086 Y184.524 E19.06651
G1 X40.183 Y184.524 E19.09610
G1 X37.036 Y181.376 E19.24195
G1 X36.133 Y181.376 E19.27154
G1 X39.281 Y184.524 E19.41739
G1 X38.378 Y184.524 E19.44698
G1 X35.231 Y181.376 E19.59283
G1 X34.726 Y181.775 E19.61389
G1 X37.475 Y184.524 E19.74127
G1 X36.572 Y184.524 E19.77085
G1 X34.726 Y182.678 E19.85639
G1 X34.726 Y183.581 E19.88598
G1 X35.669 Y184.524 E19.92967
G1 X34.766 Y184.524 E19.95926
G1 X34.726 Y184.484 E19.96111
G1 X34.766 Y184.524 F9600.000 E19.94432
G1 X35.669 Y184.524 F9600.000 E19.67629
G1 X34.726 Y183.581 F9600.000 E19.28045
G1 X34.726 Y182.678 F9600.000 E19.01242
G1 X34.730 Y182.681 F9600.000 E19.01111
G1 F3000.000 E18.96111
G92 E0
G1 X29.286 Y163.875 F12000.000
G1 E1.00000 F3000.000
G1 X29.286 Y156.227 E1.25062 F2400.000
G1 X30.314 Y156.227 E1.28433 F2400.000
G1 X30.314 Y172.157 E1.80638
G1 X29.286 Y172.157 E1.84010
G1 X29.286 Y163.935 E2.10956
G1 X29.709 Y160.763 F9600.000 E1.15956
G1 F3000.000 E1.10956
G92 E0
G1 X29.286 Y102.285 F12000.000
G1 E1.00000 F3000.000
G1 X29.286 Y54.427 E2.56831 F2400.000
G1 X30.314 Y54.427 E2.60202 F2400.000
G1 X30.314 Y150.333 E5.74490
G1 X29.286 Y150.333 E5.77861
G1 X29.286 Y102.345 E7.35122
G1 X29.354 Y99.145 F9600.000 E6.40122
G1 F3000.000 E6.35122
G92 E0
G1 X29.286 Y31.276 F12000.000
G1 E1.00000 F3000.000
G1 X29.286 Y15.036 E1.53219 F2400.000
G1 X30.314 Y15.036 E1.56590 F2400.000
G1 X30.314 Y48.533 E2.66363
G1 X29.286 Y48.533 E2.69734
G1 X29.286 Y31.336 E3.26091
G1 X28.650 Y31.336 F12000.000
G1 X28.650 Y14.400 E3.81589 F1680.000
G1 X30.950 Y14.400 E3.89126
G1 X30.950 Y172.793 E9.08186
G1 X28.650 Y172.793 E9.15723 F1680.000
G1 X28.650 Y155.591 E9.72094
G1 X30.350 Y155.591 E9.77665
G1 X30.350 Y150.969 E9.92813
G1 X28.650 Y150.969 E9.98384
G1 X28.650 Y53.791 E13.16838
G1 X30.350 Y53.791 E13.22409
G1 X30.350 Y49.169 E13.37557
G1 X28.650 Y49.169 E13.43128
G1 X28.650 Y31.396 E14.01371
G1 X28.650 Y34.596 F9600.000 E13.06371
G1 F3000.000 E13.01371
G92 E0
G1 X30.602 Y172.595 F12000.000
G1 X29.800 Y48.215 F12000.000
G1 E1.00000 F3000.000
G1 X29.800 Y15.353 E1.61116 F600.000
G1 X29.800 Y18.553 F9600.000 E0.66116
G1 F3000.000 E0.61116
G92 E0
G1 X29.800 Y54.745 F12000.000
G1 E1.00000 F3000.000
G1 X29.800 Y150.015 E2.77184 F600.000
G1 X29.800 Y146.815 F9600.000 E1.82184
G1 F3000.000 E1.77184
G92 E0
G1 X29.800 Y156.545 F12000.000
G1 E1.00000 F3000.000
G1 X29.800 Y171.840 E1.28446 F600.000
G1 X29.800 Y168.640 F9600.000 E0.33446
G1 F3000.000 E0.28446
G92 E0
G1 X135.714 Y164.606 F12000.000
G1 E1.00000 F3000.000
G1 X135.714 Y172.157 E1.24748 F2400.000
G1 X134.286 Y172.157 E1.29430
G1 X134.286 Y156.227 E1.81635
G1 X135.714 Y156.227 E1.86317 F2400.000
G1 X135.714 Y164.546 E2.13578
G1 X135.714 Y161.346 F9600.000 E1.18578
G1 F3000.000 E1.13578
G92 E0
G1 X135.714 Y102.366 F12000.000
G1 E1.00000 F3000.000
G1 X135.714 Y150.333 E2.57189 F2400.000
G1 X134.286 Y150.333 E2.61871
G1 X134.286 Y54.427 E5.76159
G1 X135.714 Y54.427 E5.80841 F2400.000
G1 X135.714 Y102.306 E7.37743
G1 X135.714 Y99.106 F9600.000 E6.42743
G1 F3000.000 E6.37743
G92 E0
G1 X135.714 Y32.045 F12000.000
G1 E1.00000 F3000.000
G1 X135.714 Y48.533 E1.54032 F2400.000
G1 X134.286 Y48.533 E1.58714
G1 X134.286 Y15.036 E2.68486
G1 X135.714 Y15.036 E2.73169 F2400.000
G1 X135.714 Y31.985 E3.28712
G1 X136.350 Y31.985 F12000.000
G1 X136.350 Y49.169 E3.85024 F1680.000
G1 X134.350 Y49.169 E3.91578 F1680.000
G1 X134.350 Y53.791 E4.06726
G1 X136.350 Y53.791 E4.13280
G1 X136.350 Y150.969 E7.31734
G1 X134.350 Y150.969 E7.38288
G1 X134.350 Y155.591 E7.53436
G1 X136.350 Y155.591 E7.59990
G1 X136.350 Y172.793 E8.16361
G1 X133.650 Y172.793 E8.25209
G1 X133.650 Y14.400 E13.44268
G1 X136.350 Y14.400 E13.53116
G1 X136.350 Y31.925 E14.10546
G1 X135.981 Y35.104 F9600.000 E13.15546
G1 F3000.000 E13.10546
G92 E0
G1 X136.004 Y48.969 F12000.000
G1 X135.000 Y156.545 F12000.000
G1 E1.00000 F3000.000
G1 X135.000 Y171.840 E1.76876 F600.000
G1 X135.000 Y168.640 F9600.000 E0.81876
G1 F3000.000 E0.76876
G92 E0
G1 X135.000 Y150.015 F12000.000
G1 E1.00000 F3000.000
G1 X135.000 Y54.745 E5.78848 F600.000
G1 X135.000 Y57.945 F9600.000 E4.83848
G1 F3000.000 E4.78848
G92 E0
G1 X135.000 Y48.215 F12000.000
G1 E1.00000 F3000.000
G1 X135.000 Y15.353 E2.65170 F600.000
M106 S179
G1 X135.000 Y18.553 F9600.000 E1.70170
G1 F3000.000 E1.65170
G92 E0
G1 Z0.550 F12000.000
G1 X66.577 Y180.550 F12000.000
G1 E1.00000 F3000.000
G1 X132.700 Y180.550 E1.77921 F4800.000
G1 X132.700 Y185.350 E1.83578
G1 X33.900 Y185.350 E3.00007
G1 X33.900 Y180.550 E3.05663
G1 X66.517 Y180.550 E3.44101 F4800.000
G1 X66.517 Y180.150 F12000.000
G1 X133.100 Y180.150 E4.22564 F3360.000
G1 X133.100 Y185.750 E4.29163
G1 X33.500 Y185.750 E5.46536 F3360.000
G1 X33.500 Y180.150 E5.53135
G1 X66.457 Y180.150 E5.91973
G1 X63.303 Y180.686 F9600.000 E4.96973
G1 F3000.000 E4.91973
G92 E0
G1 X132.700 Y185.743 F12000.000
G1 X132.379 Y184.989 F12000.000
G1 E1.00000 F3000.000
G1 X132.339 Y185.029 E1.00105 F6000.000
G1 X131.450 Y185.029 E1.01750
G1 X132.379 Y184.100 E1.04182
G1 X132.379 Y183.211 E1.05828
G1 X130.561 Y185.029 E1.10587
G1 X129.672 Y185.029 E1.12233
G1 X132.379 Y182.322 E1.19319
G1 X132.379 Y181.433 E1.20965
G1 X128.783 Y185.029 E1.30378
G1 X127.894 Y185.029 E1.32024
G1 X132.051 Y180.871 E1.42907
G1 X131.162 Y180.871 E1.44553
G1 X127.005 Y185.029 E1.55436
G1 X126.116 Y185.029 E1.57081
G1 X130.273 Y180.871 E1.67964
G1 X129.384 Y180.871 E1.69610
G1 X125.227 Y185.029 E1.80493
G1 X124.338 Y185.029 E1.82139
G1 X128.495 Y180.871 E1.93022
G1 X127.606 Y180.871 E1.94667
G1 X123.449 Y185.029 E2.05550
G1 X122.560 Y185.029 E2.07196
G1 X126.717 Y180.871 E2.18079
G1 X125.828 Y180.871 E2.19725
G1 X121.671 Y185.029 E2.30608
G1 X120.782 Y185.029 E2.32253
G1 X124.939 Y180.871 E2.43136
G1 X124.050 Y180.871 E2.44782
G1 X119.893 Y185.029 E2.55665
G1 X119.004 Y185.029 E2.57311
G1 X123.161 Y180.871 E2.68194
G1 X122.272 Y180.871 E2.69839
G1 X118.115 Y185.029 E2.80722
G1 X117.226 Y185.029 E2.82368
G1 X121.383 Y180.871 E2.93251
G1 X120.494 Y180.871 E2.94897
G1 X116.337 Y185.029 E3.05780
G1 X115.448 Y185.029 E3.07425
G1 X119.605 Y180.871 E3.18309
G1 X118.716 Y180.871 E3.19954
G1 X114.559 Y185.029 E3.30837
G1 X113.670 Y185.029 E3.32483
G1 X117.827 Y180.871 E3.43366
G1 X116.938 Y180.871 E3.45011
G1 X112.781 Y185.029 E3.55895
G1 X111.892 Y185.029 E3.57540
G1 X116.049 Y180.871 E3.68423
G1 X115.160 Y180.871 E3.70069
G1 X111.003 Y185.029 E3.80952
G1 X110.114 Y185.029 E3.82598
G1 X114.271 Y180.871 E3.93481
G1 X113.382 Y180.871 E3.95126
G1 X109.225 Y185.029 E4.06009
G1 X108.336 Y185.029 E4.07655
G1 X112.493 Y180.871 E4.18538
G1 X111.604 Y180.871 E4.20184
G1 X107.447 Y185.029 E4.31067
G1 X106.558 Y185.029 E4.32712
G1 X110.715 Y180.871 E4.43595
G1 X109.826 Y180.871 E4.45241
G1 X105.669 Y185.029 E4.56124
G1 X104.780 Y185.029 E4.57770
G1 X108.937 Y180.871 E4.68653
G1 X108.048 Y180.871 E4.70298
G1 X103.891 Y185.029 E4.81181
G1 X103.002 Y185.029 E4.82827
G1 X107.159 Y180.871 E4.93710
G1 X106.270 Y180.871 E4.95356
G1 X102.113 Y185.029 E5.06239
G1 X101.224 Y185.029 E5.07884
G1 X105.381 Y180.871 E5.18767
G1 X104.492 Y180.871 E5.20413
G1 X100.335 Y185.029 E5.31296
G1 X99.446 Y185.029 E5.32942
G1 X103.603 Y180.871 E5.43825
G1 X102.714 Y180.871 E5.45470
G1 X98.557 Y185.029 E5.56353
G1 X97.668 Y185.029 E5.57999
G1 X101.825 Y180.871 E5.68882
G1 X100.936 Y180.871 E5.70528
G1 X96.779 Y185.029 E5.81411
G1 X95.890 Y185.029 E5.83056
G1 X100.047 Y180.871 E5.93939
G1 X99.158 Y180.871 E5.95585
G1 X95.001 Y185.029 E6.06468
G1 X94.112 Y185.029 E6.08114
G1 X98.269 Y180.871 E6.18997
G1 X97.380 Y180.871 E6.20642
G1 X93.223 Y185.029 E6.31525
G1 X92.334 Y185.029 E6.33171
G1 X96.491 Y180.871 E6.44054
G1 X95.602 Y180.871 E6.45700
G1 X91.445 Y185.029 E6.56583
G1 X90.556 Y185.029 E6.58228
G1 X94.713 Y180.871 E6.69112
G1 X93.824 Y180.871 E6.70757
G1 X89.667 Y185.029 E6.81640
G1 X88.778 Y185.029 E6.83286
G1 X92.935 Y180.871 E6.94169
G1 X92.046 Y180.871 E6.95814
G1 X87.889 Y185.029 E7.06698
G1 X87.000 Y185.029 E7.08343
G1 X91.157 Y180.871 E7.19226
G1 X90.268 Y180.871 E7.20872
G1 X86.111 Y185.029 E7.31755
G1 X85.222 Y185.029 E7.33400
G1 X89.379 Y180.871 E7.44284
G1 X88.490 Y180.871 E7.45929
G1 X84.333 Y185.029 E7.56812
G1 X83.444 Y185.029 E7.58458
