; generated by Slic3r 1.1.7 on 2015-05-28 at 11:25:32

; perimeters extrusion width = 0.40mm
; infill extrusion width = 0.67mm
; solid infill extrusion width = 0.67mm
; top infill extrusion width = 0.67mm

G21 ; set units to millimeters
M107
M92 E445; set custom extruder stepps
G0 Z1 ;Go to safe Z position
G28 ; home all axes
M301 P34.91 I1.90 D160.73; set custom PID parameters
G90 ; use absolute coordinates
G92 E0
M82 ; use absolute distances for extrusion
G1 F3000.000 E-1.00000
G92 E0
G1 Z0.350 F12000.000
G1 X127.088 Y184.423 F12000.000
G1 E1.00000 F3000.000
G1 X127.130 Y184.201 E1.00741 F2400.000
G1 X127.188 Y184.060 E1.01240
G1 X127.366 Y183.816 E1.02229
G1 X127.611 Y183.638 E1.03222
G1 X127.899 Y183.545 E1.04215
G1 X128.201 Y183.545 E1.05206 F2400.000
G1 X128.490 Y183.638 E1.06200
G1 X128.734 Y183.816 E1.07190
G1 X128.912 Y184.060 E1.08181
G1 X129.005 Y184.349 E1.09174
G1 X129.005 Y184.651 E1.10166
G1 X128.912 Y184.940 E1.11159
G1 X128.734 Y185.184 E1.12150
G1 X128.490 Y185.362 E1.13140
G1 X128.201 Y185.455 E1.14134
G1 X127.899 Y185.455 E1.15125
G1 X127.611 Y185.362 E1.16118
G1 X127.366 Y185.184 E1.17111
G1 X127.188 Y184.940 E1.18100
G1 X127.094 Y184.651 E1.19093
G1 X127.084 Y184.483 E1.19646
G1 X126.450 Y184.433 F12000.000
G1 X126.465 Y184.249 E1.20252 F1680.000
G1 X126.523 Y184.004 E1.21077
G1 X126.620 Y183.771 E1.21903
G1 X126.751 Y183.556 E1.22729
G1 X126.915 Y183.365 E1.23553
G1 X127.106 Y183.201 E1.24379
G1 X127.321 Y183.070 E1.25204
G1 X127.554 Y182.974 E1.26030
G1 X127.799 Y182.915 E1.26855
G1 X128.050 Y182.895 E1.27680
G1 X128.301 Y182.915 E1.28506
G1 X128.546 Y182.974 E1.29331 F1680.000
G1 X128.779 Y183.070 E1.30157
G1 X128.994 Y183.201 E1.30983
G1 X129.185 Y183.365 E1.31807
G1 X129.349 Y183.556 E1.32632
G1 X129.480 Y183.771 E1.33458
G1 X129.576 Y184.004 E1.34283
G1 X129.635 Y184.249 E1.35109
G1 X129.655 Y184.500 E1.35934
G1 X129.635 Y184.751 E1.36760
G1 X129.576 Y184.996 E1.37586
G1 X129.480 Y185.229 E1.38411
G1 X129.349 Y185.444 E1.39237
G1 X129.185 Y185.635 E1.40061
G1 X128.994 Y185.799 E1.40885
G1 X128.779 Y185.930 E1.41712
G1 X128.546 Y186.026 E1.42537
G1 X128.301 Y186.085 E1.43362
G1 X128.050 Y186.105 E1.44188
G1 X127.799 Y186.085 E1.45014
G1 X127.554 Y186.026 E1.45839
G1 X127.321 Y185.930 E1.46665
G1 X127.106 Y185.799 E1.47490
G1 X126.915 Y185.635 E1.48316
G1 X126.751 Y185.444 E1.49139
G1 X126.620 Y185.229 E1.49965
G1 X126.523 Y184.996 E1.50791
G1 X126.465 Y184.751 E1.51616
G1 X126.445 Y184.493 E1.52464
G1 X128.546 Y182.974 F9600.000 E0.75494
G1 X128.779 Y183.070 F9600.000 E0.68012
G1 X128.994 Y183.201 F9600.000 E0.60528
G1 X129.072 Y183.269 F9600.000 E0.57464
G1 F3000.000 E0.52464
G92 E0
G1 X128.449 Y183.119 F12000.000
G1 X128.299 Y184.049 F12000.000
G1 E1.00000 F3000.000
G1 X128.501 Y184.251 E1.00937 F3000.000
G1 X127.771 Y184.934 E1.04212
G1 X127.612 Y184.775 E1.04949
G1 X127.771 Y184.934 F9600.000 E0.98272
G1 X128.501 Y184.251 F9600.000 E0.68600
G1 X128.299 Y184.049 F9600.000 E0.60116
G1 F3000.000 E0.04949
G92 E0
G1 X117.261 Y185.058 F12000.000
G1 E1.00000 F3000.000
G1 X117.130 Y184.799 E1.00953 F2400.000
G1 X117.082 Y184.500 E1.01944
G1 X117.094 Y184.349 E1.02442
G1 X117.188 Y184.060 E1.03435
G1 X117.267 Y183.931 E1.03932
G1 X117.481 Y183.717 E1.04924
G1 X117.751 Y183.580 E1.05914
G1 X117.899 Y183.545 E1.06414
G1 X118.201 Y183.545 E1.07405 F2400.000
G1 X118.489 Y183.638 E1.08397
G1 X118.619 Y183.717 E1.08894
G1 X118.833 Y183.931 E1.09886
G1 X118.970 Y184.201 E1.10879
G1 X119.006 Y184.349 E1.11376
G1 X119.006 Y184.651 E1.12368
G1 X118.970 Y184.799 E1.12865
G1 X118.833 Y185.069 E1.13858
G1 X118.619 Y185.283 E1.14850
G1 X118.349 Y185.420 E1.15841
G1 X118.201 Y185.455 E1.16340
G1 X118.050 Y185.467 E1.16837
G1 X117.751 Y185.420 E1.17830
G1 X117.481 Y185.283 E1.18820
G1 X117.298 Y185.105 E1.19657
G1 X116.815 Y185.519 F12000.000
G1 X116.620 Y185.229 E1.20802 F1680.000
G1 X116.523 Y184.996 E1.21628
G1 X116.465 Y184.751 E1.22453
G1 X116.445 Y184.500 E1.23279
G1 X116.465 Y184.249 E1.24104
G1 X116.523 Y184.004 E1.24930
G1 X116.620 Y183.771 E1.25755
G1 X116.751 Y183.556 E1.26581
G1 X116.915 Y183.365 E1.27405
G1 X117.106 Y183.201 E1.28231
G1 X117.321 Y183.070 E1.29056
G1 X117.554 Y182.974 E1.29882
G1 X117.799 Y182.915 E1.30707
G1 X118.050 Y182.895 E1.31533
G1 X118.301 Y182.915 E1.32358
G1 X118.546 Y182.974 E1.33184 F1680.000
G1 X118.779 Y183.070 E1.34009
G1 X118.994 Y183.201 E1.34835
G1 X119.185 Y183.365 E1.35660
G1 X119.349 Y183.556 E1.36484
G1 X119.480 Y183.771 E1.37310
G1 X119.577 Y184.004 E1.38136
G1 X119.635 Y184.249 E1.38961
G1 X119.655 Y184.500 E1.39787
G1 X119.635 Y184.751 E1.40612
G1 X119.577 Y184.996 E1.41437
G1 X119.480 Y185.229 E1.42263
G1 X119.349 Y185.444 E1.43089
G1 X119.185 Y185.635 E1.43913
G1 X118.994 Y185.799 E1.44739
G1 X118.779 Y185.930 E1.45564
G1 X118.546 Y186.026 E1.46390
G1 X118.301 Y186.085 E1.47215
G1 X118.050 Y186.105 E1.48041
G1 X117.799 Y186.085 E1.48866
G1 X117.554 Y186.026 E1.49691
G1 X117.321 Y185.930 E1.50517
G1 X117.106 Y185.799 E1.51343
G1 X116.854 Y185.564 E1.52470
G1 X118.546 Y182.974 F9600.000 E0.60617
G1 X118.644 Y183.014 F9600.000 E0.57470
G1 F3000.000 E0.52470
G92 E0
G1 X118.475 Y183.098 F12000.000
G1 X118.285 Y184.035 F12000.000
G1 E1.00000 F3000.000
G1 X118.501 Y184.251 E1.01001 F3000.000
G1 X117.815 Y184.965 E1.04245
G1 X117.599 Y184.749 E1.05246
G1 X117.815 Y184.965 F9600.000 E0.96181
G1 X118.501 Y184.251 F9600.000 E0.66786
G1 X118.285 Y184.035 F9600.000 E0.57721
G1 F3000.000 E0.05246
G92 E0
G1 X107.837 Y185.441 F12000.000
G1 E1.00000 F3000.000
G1 X107.611 Y185.362 E1.00787 F2400.000
G1 X107.481 Y185.283 E1.01284
G1 X107.267 Y185.069 E1.02276
G1 X107.130 Y184.799 E1.03268
G1 X107.082 Y184.500 E1.04260
G1 X107.130 Y184.201 E1.05252
G1 X107.267 Y183.931 E1.06245
G1 X107.481 Y183.717 E1.07237
G1 X107.611 Y183.638 E1.07733
G1 X107.899 Y183.545 E1.08726
G1 X108.050 Y183.533 E1.09223 F2400.000
G1 X108.349 Y183.580 E1.10217
G1 X108.619 Y183.717 E1.11207
G1 X108.833 Y183.931 E1.12199
G1 X108.912 Y184.060 E1.12696
G1 X109.006 Y184.349 E1.13689
G1 X109.018 Y184.500 E1.14187
G1 X109.006 Y184.651 E1.14684
G1 X108.912 Y184.940 E1.15677
G1 X108.833 Y185.069 E1.16174
G1 X108.619 Y185.283 E1.17166
G1 X108.349 Y185.420 E1.18157
G1 X108.201 Y185.455 E1.18656
G1 X107.896 Y185.455 E1.19656
G1 X107.748 Y186.073 F12000.000
G1 X107.554 Y186.026 E1.20310 F1680.000
G1 X107.321 Y185.930 E1.21135
G1 X107.106 Y185.799 E1.21961
G1 X106.915 Y185.635 E1.22787
G1 X106.751 Y185.444 E1.23610
G1 X106.620 Y185.229 E1.24436
G1 X106.523 Y184.996 E1.25262
G1 X106.465 Y184.751 E1.26087
G1 X106.445 Y184.500 E1.26913
G1 X106.465 Y184.249 E1.27739
G1 X106.523 Y184.004 E1.28564
G1 X106.620 Y183.771 E1.29390
G1 X106.751 Y183.556 E1.30216
G1 X106.915 Y183.365 E1.31039
G1 X107.106 Y183.201 E1.31865
G1 X107.321 Y183.070 E1.32691
G1 X107.554 Y182.974 E1.33516
G1 X107.799 Y182.915 E1.34342
G1 X108.050 Y182.895 E1.35167
G1 X108.301 Y182.915 E1.35993
G1 X108.546 Y182.974 E1.36818 F1680.000
G1 X108.779 Y183.070 E1.37643
G1 X108.994 Y183.201 E1.38469
G1 X109.185 Y183.365 E1.39295
G1 X109.349 Y183.556 E1.40118
G1 X109.480 Y183.771 E1.40944
G1 X109.577 Y184.004 E1.41770
G1 X109.635 Y184.249 E1.42595
G1 X109.655 Y184.500 E1.43421
G1 X109.635 Y184.751 E1.44247
G1 X109.577 Y184.996 E1.45072
G1 X109.480 Y185.229 E1.45898
G1 X109.349 Y185.444 E1.46724
G1 X109.185 Y185.635 E1.47547
G1 X108.994 Y185.799 E1.48373
G1 X108.779 Y185.930 E1.49199
G1 X108.546 Y186.026 E1.50024
G1 X108.301 Y186.085 E1.50850
G1 X108.050 Y186.105 E1.51675
G1 X107.806 Y186.086 E1.52476
G1 X108.546 Y182.974 F9600.000 E0.57511
G1 X108.547 Y182.974 F9600.000 E0.57476
G1 F3000.000 E0.52476
G92 E0
G1 X108.493 Y183.078 F12000.000
G1 X108.285 Y184.035 F12000.000
G1 E1.00000 F3000.000
G1 X108.501 Y184.251 E1.01001 F3000.000
G1 X107.815 Y184.965 E1.04245
G1 X107.599 Y184.749 E1.05246
G1 X107.815 Y184.965 F9600.000 E0.96181
G1 X108.501 Y184.251 F9600.000 E0.66786
G1 X108.285 Y184.035 F9600.000 E0.57721
G1 F3000.000 E0.05246
G92 E0
G1 X98.991 Y184.712 F12000.000
G1 E1.00000 F3000.000
G1 X98.912 Y184.940 E1.00791 F2400.000
G1 X98.734 Y185.184 E1.01780
G1 X98.619 Y185.283 E1.02279
G1 X98.349 Y185.420 E1.03270
G1 X98.050 Y185.467 E1.04263
G1 X97.751 Y185.420 E1.05256
G1 X97.481 Y185.283 E1.06247
G1 X97.366 Y185.184 E1.06746
G1 X97.188 Y184.940 E1.07735
G1 X97.094 Y184.651 E1.08728
G1 X97.094 Y184.349 E1.09721
G1 X97.130 Y184.201 E1.10218
G1 X97.267 Y183.931 E1.11211
G1 X97.481 Y183.717 E1.12203
G1 X97.751 Y183.580 E1.13193
G1 X97.899 Y183.545 E1.13692
G1 X98.050 Y183.533 E1.14189 F2400.000
G1 X98.349 Y183.580 E1.15183
G1 X98.619 Y183.717 E1.16173
G1 X98.734 Y183.816 E1.16672
G1 X98.833 Y183.931 E1.17168
G1 X98.970 Y184.201 E1.18161
G1 X99.018 Y184.500 E1.19152
G1 X99.005 Y184.653 E1.19657
G1 X99.623 Y184.802 F12000.000
G1 X99.577 Y184.996 E1.20311 F1680.000
G1 X99.480 Y185.229 E1.21137
G1 X99.349 Y185.444 E1.21963
G1 X99.185 Y185.635 E1.22786
G1 X98.994 Y185.799 E1.23612
G1 X98.779 Y185.930 E1.24438
G1 X98.546 Y186.026 E1.25263
G1 X98.301 Y186.085 E1.26088
G1 X98.050 Y186.105 E1.26914
G1 X97.799 Y186.085 E1.27739
G1 X97.554 Y186.026 E1.28565
G1 X97.321 Y185.930 E1.29390
G1 X97.106 Y185.799 E1.30216
G1 X96.915 Y185.635 E1.31042
G1 X96.751 Y185.444 E1.31865
G1 X96.620 Y185.229 E1.32691
G1 X96.523 Y184.996 E1.33517
G1 X96.465 Y184.751 E1.34342
G1 X96.445 Y184.500 E1.35168
G1 X96.465 Y184.249 E1.35994
G1 X96.523 Y184.004 E1.36819
G1 X96.620 Y183.771 E1.37645
G1 X96.751 Y183.556 E1.38471
G1 X96.915 Y183.365 E1.39294
G1 X97.106 Y183.201 E1.40120
G1 X97.321 Y183.070 E1.40946
G1 X97.554 Y182.974 E1.41771
G1 X97.799 Y182.915 E1.42597
G1 X98.050 Y182.895 E1.43422
G1 X98.301 Y182.915 E1.44247
G1 X98.546 Y182.974 E1.45073 F1680.000
G1 X98.779 Y183.070 E1.45898
G1 X98.994 Y183.201 E1.46724
G1 X99.185 Y183.365 E1.47550
G1 X99.349 Y183.556 E1.48373
G1 X99.480 Y183.771 E1.49199
G1 X99.577 Y184.004 E1.50025
G1 X99.635 Y184.249 E1.50850
G1 X99.655 Y184.500 E1.51676
G1 X99.636 Y184.743 E1.52476
G1 X98.546 Y182.974 F9600.000 E0.90769
G1 X98.779 Y183.070 F9600.000 E0.83291
G1 X98.994 Y183.201 F9600.000 E0.75812
G1 X99.185 Y183.365 F9600.000 E0.68330
G1 X99.349 Y183.556 F9600.000 E0.60869
G1 X99.408 Y183.654 F9600.000 E0.57476
G1 F3000.000 E0.52476
G92 E0
G1 X98.528 Y183.023 F12000.000
G1 X98.285 Y184.035 F12000.000
G1 E1.00000 F3000.000
G1 X98.501 Y184.251 E1.01001 F3000.000
G1 X97.815 Y184.965 E1.04245
G1 X97.599 Y184.749 E1.05246
G1 X97.815 Y184.965 F9600.000 E0.96181
G1 X98.501 Y184.251 F9600.000 E0.66786
G1 X98.285 Y184.035 F9600.000 E0.57721
G1 F3000.000 E0.05246
G92 E0
G1 X88.907 Y184.052 F12000.000
G1 E1.00000 F3000.000
G1 X88.970 Y184.201 E1.00531 F2400.000
G1 X89.006 Y184.349 E1.01028
G1 X89.006 Y184.651 E1.02021
G1 X88.912 Y184.940 E1.03014
G1 X88.734 Y185.184 E1.04003
G1 X88.489 Y185.362 E1.04996
G1 X88.201 Y185.455 E1.05989
G1 X87.899 Y185.455 E1.06980
G1 X87.611 Y185.362 E1.07973
G1 X87.366 Y185.184 E1.08966
G1 X87.188 Y184.940 E1.09955
G1 X87.094 Y184.651 E1.10948
G1 X87.094 Y184.349 E1.11940
G1 X87.188 Y184.060 E1.12933
G1 X87.366 Y183.816 E1.13923
G1 X87.611 Y183.638 E1.14916
G1 X87.899 Y183.545 E1.15909
G1 X88.201 Y183.545 E1.16900 F2400.000
G1 X88.489 Y183.638 E1.17892
G1 X88.734 Y183.816 E1.18885
G1 X88.875 Y184.001 E1.19647
G1 X89.418 Y183.669 F12000.000
G1 X89.480 Y183.771 E1.20039 F1680.000
G1 X89.577 Y184.004 E1.20865
G1 X89.635 Y184.249 E1.21690
G1 X89.655 Y184.500 E1.22516
G1 X89.635 Y184.751 E1.23341
G1 X89.577 Y184.996 E1.24166
G1 X89.480 Y185.229 E1.24992
G1 X89.349 Y185.444 E1.25818
G1 X89.185 Y185.635 E1.26642
G1 X88.994 Y185.799 E1.27468
G1 X88.779 Y185.930 E1.28293
G1 X88.546 Y186.026 E1.29119
G1 X88.301 Y186.085 E1.29944
G1 X88.050 Y186.105 E1.30770
G1 X87.799 Y186.085 E1.31595
G1 X87.554 Y186.026 E1.32421
G1 X87.321 Y185.930 E1.33246
G1 X87.106 Y185.799 E1.34072
G1 X86.915 Y185.635 E1.34897
G1 X86.751 Y185.444 E1.35721
G1 X86.620 Y185.229 E1.36547
G1 X86.523 Y184.996 E1.37373
G1 X86.465 Y184.751 E1.38198
G1 X86.445 Y184.500 E1.39024
G1 X86.465 Y184.249 E1.39849
G1 X86.523 Y184.004 E1.40674
G1 X86.620 Y183.771 E1.41500
G1 X86.751 Y183.556 E1.42326
G1 X86.915 Y183.365 E1.43150
G1 X87.106 Y183.201 E1.43976
G1 X87.321 Y183.070 E1.44801
G1 X87.554 Y182.974 E1.45627
G1 X87.799 Y182.915 E1.46452
G1 X88.050 Y182.895 E1.47278
G1 X88.301 Y182.915 E1.48103
G1 X88.546 Y182.974 E1.48928 F1680.000
G1 X88.779 Y183.070 E1.49754
G1 X88.994 Y183.201 E1.50579
G1 X89.185 Y183.365 E1.51405
G1 X89.386 Y183.618 E1.52464
G1 X88.541 Y182.993 F12000.000
G1 X88.285 Y184.035 F12000.000
G1 X88.501 Y184.251 E1.53464 F3000.000
G1 X87.815 Y184.965 E1.56709
G1 X87.599 Y184.749 E1.57710
G1 X87.815 Y184.965 F9600.000 E1.48644
G1 X88.501 Y184.251 F9600.000 E1.19249
G1 X88.285 Y184.035 F9600.000 E1.10184
G1 F3000.000 E0.57710
G92 E0
G1 X77.564 Y185.334 F12000.000
G1 E1.00000 F3000.000
G1 X77.366 Y185.184 E1.00815 F2400.000
G1 X77.188 Y184.940 E1.01804
G1 X77.094 Y184.651 E1.02797
G1 X77.094 Y184.349 E1.03790
G1 X77.188 Y184.060 E1.04783
G1 X77.366 Y183.816 E1.05772
G1 X77.611 Y183.638 E1.06765
G1 X77.899 Y183.545 E1.07758
G1 X78.050 Y183.533 E1.08255 F2400.000
G1 X78.349 Y183.580 E1.09248
G1 X78.619 Y183.717 E1.10239
G1 X78.734 Y183.816 E1.10738
G1 X78.833 Y183.931 E1.11234
G1 X78.970 Y184.201 E1.12226
G1 X79.006 Y184.349 E1.12723
G1 X79.006 Y184.651 E1.13716
G1 X78.970 Y184.799 E1.14213
G1 X78.833 Y185.069 E1.15206
G1 X78.619 Y185.283 E1.16198
G1 X78.489 Y185.362 E1.16694
G1 X78.349 Y185.420 E1.17191
G1 X78.050 Y185.467 E1.18185
G1 X77.899 Y185.455 E1.18681
G1 X77.616 Y185.364 E1.19657
G1 X77.373 Y185.951 F12000.000
G1 X77.106 Y185.799 E1.20663 F1680.000
G1 X76.915 Y185.635 E1.21488
G1 X76.751 Y185.444 E1.22312
G1 X76.620 Y185.229 E1.23138
G1 X76.523 Y184.996 E1.23964
G1 X76.465 Y184.751 E1.24789
G1 X76.445 Y184.500 E1.25615
G1 X76.465 Y184.249 E1.26440
G1 X76.523 Y184.004 E1.27265
G1 X76.620 Y183.771 E1.28091
G1 X76.751 Y183.556 E1.28917
G1 X76.915 Y183.365 E1.29741
G1 X77.106 Y183.201 E1.30567
G1 X77.321 Y183.070 E1.31392
G1 X77.554 Y182.974 E1.32218
G1 X77.799 Y182.915 E1.33043
G1 X78.050 Y182.895 E1.33869
G1 X78.301 Y182.915 E1.34694
G1 X78.546 Y182.974 E1.35519 F1680.000
G1 X78.779 Y183.070 E1.36345
G1 X78.994 Y183.201 E1.37171
G1 X79.185 Y183.365 E1.37996
G1 X79.349 Y183.556 E1.38820
G1 X79.480 Y183.771 E1.39646
G1 X79.577 Y184.004 E1.40472
G1 X79.635 Y184.249 E1.41297
G1 X79.655 Y184.500 E1.42123
G1 X79.635 Y184.751 E1.42948
G1 X79.577 Y184.996 E1.43773
G1 X79.480 Y185.229 E1.44599
G1 X79.349 Y185.444 E1.45425
G1 X79.185 Y185.635 E1.46249
G1 X78.994 Y185.799 E1.47075
G1 X78.779 Y185.930 E1.47900
G1 X78.546 Y186.026 E1.48726
G1 X78.301 Y186.085 E1.49551
G1 X78.050 Y186.105 E1.50377
G1 X77.799 Y186.085 E1.51202
G1 X77.554 Y186.026 E1.52027
G1 X77.428 Y185.974 E1.52474
G1 X78.545 Y182.976 F9600.000 E0.57474
G1 F3000.000 E0.52474
G92 E0
G1 X78.484 Y183.088 F12000.000
G1 X78.285 Y184.035 F12000.000
G1 E1.00000 F3000.000
G1 X78.501 Y184.251 E1.01001 F3000.000
G1 X77.815 Y184.965 E1.04245
G1 X77.599 Y184.749 E1.05246
G1 X77.815 Y184.965 F9600.000 E0.96181
G1 X78.501 Y184.251 F9600.000 E0.66786
G1 X78.285 Y184.035 F9600.000 E0.57720
G1 F3000.000 E0.05246
G92 E0
G1 X68.876 Y184.001 F12000.000
G1 E1.00000 F3000.000
G1 X68.970 Y184.201 E1.00725 F2400.000
G1 X69.006 Y184.349 E1.01222
G1 X69.006 Y184.651 E1.02215
G1 X68.912 Y184.940 E1.03208
G1 X68.734 Y185.184 E1.04197
G1 X68.489 Y185.362 E1.05190
G1 X68.201 Y185.455 E1.06183
G1 X67.899 Y185.455 E1.07174
G1 X67.611 Y185.362 E1.08167
G1 X67.366 Y185.184 E1.09160
G1 X67.188 Y184.940 E1.10149
